X:1
T:BWV1061- hapsichord sound
T:Arranged for four keyboard instruments
T:Johann Sebastian bach
%%score { ( 1 2 5 ) | ( 3 4 ) } { ( 6 7 ) | ( 8 9 ) } { 10 | 11 } { 12 | 13 }
L:1/8
M:4/4
K:C
V:1 treble nm="Harpsichord"
V:2 treble 
V:5 treble 
V:3 bass 
V:4 bass 
V:6 treble nm="Harpsichord"
V:7 treble 
V:8 bass 
V:9 bass 
V:10 treble nm="Harpsichord"
V:11 bass 
V:12 treble nm="Harpsichord"
V:13 bass 
V:1
 e>f g/4f/4g/4f/4g/4f/4e/4f/4 g z z/ g/f/g/ | A/g/f/e/ f/A/B/f/ c/f/e/d/ e z | z4 z2 z G | %3
 AB c/d/e/c/ d/c/B/A/ G/ d/e/f/ | g/e/g/_B/ A/g/f/e/ fd z/ e/^f/_a/ | %5
 a/e/a/c/ B/a/g/^f/ g/e/g/_B/ A/g/=f/e/ | f/d/f/A/ G/f/e/d/ e/c/e/G/ F/e/d/c/ | %7
 B/G/d/B/ f/d/c/B/ c/G/e/c/ g/e/d/c/ | d/B/f/d/ a/f/e/d/ e/c/g/e/ c'/g/f/e/ | %9
 f/d/f/c/ f/B/f/A/ f/G/f/A/ f/B/f/c/ | f/d/f/c/ f/B/f/A/ f/G/f/A/ f/B/g | e d/c/ e/d/c/B/ c z z G | %12
 GE/F/ GA/B/ cd/B/ c z | z4 z2 z [Gce] | e c/d/ e^f/g/ ab/g/ a d | d B/c/ de/^f/ ga/f/ g c | %16
 c A/B/ ce c/4B/4c/A/B/ c^f | c/4B/4c/A/B/ cg c/4B/4c/A/B/ ca | %18
 b/a/g/b/ a/g/^f/a/ g/a/g/=f/ e/d/c/B/ | e/f/e/d/ c/B/A/G/ ^F/D/E/F/ G/A/B/c/ | %20
 d c/B/ c/B/A/c/ G z z2 | z8 | z8 | z8 | z8 | z8 | z8 | z4 B>c d/4c/4d/4c/4d/4c/4B/4c/4 | %28
 d z z2 d/e/d/e/ f/4e/4f/4e/4f/4e/4d/4e/4 | f z z2 c>d e/4d/4e/4d/4e/4d/4c/4d/4 | %30
 e z z2 e/f/e/f/ g/4f/4g/4f/4g/4f/4e/4f/4 | g z z/ d/e/^f/ g/d/g/_B/ A/g/=f/e/ | %32
 fd z/ e/^f/_a/ =a/e/a/A/ _A/a/g/f/ | ge z/ ^f/_a/_b/ =b/f/b/d/ B/b/=a/_a/ | %34
 a/e/a/c/ A/a/g/^f/ g/d/g/B/ e/d/c/B/ | Ac z/ c/B/A/ Bd z/ d/c/B/ | %36
 ce z/ e/d/c/ B/G/e/d/ c/B/A/G/- | [Gd] z z2 z4 | z2 z/ B/A/B/ C/B/A/G/ A/C/D/A/ | %39
 B,/A/G/^F/ G D EF G/A/B/G/ | ^F/c/E/c/ D/c/E/c/ F/c/G/c/ A/c/G/c/ | %41
 ^F/c/E/c/ D/c/E/c/ F/c/G/c/ A/c/d | BA/G/ B/A/G/^F/ G2 z d | d/4c/4d/B/c/ de/^f/ ga/f/ g/c/B/A/ | %44
 G/A/B/A/ G/A/B/A/ G/A/^F/A/ G e | e/4d/4e/c/d/ e^f/_a/ =ab/_a/ =a/=f/e/d/ | %46
 c/d/e/d/ c/B/A/G/ F/G/E/G/ F/ A/d/e/ | f/4e/4f/d/e/ f_a/=a/ bc'/a/ b e | %48
 e/4d/4e/c/d/ ef/g/ ab/_a/ =ad | d/4c/4d/B/c/ df d/4c/4d/B/c/ d_a | %50
 d/4c/4d/B/c/ da d/4c/4d/B/c/ db | c'/b/a/c'/ b/a/_a/b/ =a/b/a/g/ f/e/d/^c/ | %52
 f/g/f/e/ d/c/B/A/ _A/E/^F/A/ =A/B/c/d/ | ed/c/ d/c/B/c/ A z z2 | z8 | z8 | z8 | z8 | z8 | z8 | %60
 z4 A>B c/4B/4c/4B/4c/4B/4A/4B/4 | c z z/ e/d/e/ ce ag | f z z2 d>e f/4e/4f/4e/4f/4e/4d/4e/4 | %63
 f z z d dB/c/ dd/e/ | fg/e/ f z z4 | z2 z G AB c/d/e/c/ | d/c/B/A/ G g/4f/4g/ ec/d/ ef/g/ | %67
 ac'/_b/ a f/4e/4f/ dB/c/ de/f/ | gb/a/ g e/4d/4e/ cA/B/ cd/e/ | fa/g/ f d/4c/4d/ BG/A/ Bc/d/ | %70
 e z/ z g/a/b/ c/b/a/g/ a/^c/_e/a/ | e/a/g/^f/ g z z4 | z2 z B ^c_e =e/^f/g/e/ | %73
 a/^f/a/e/ a/_e/a/^c/ a/B/a/c/ a/e/a/=e/ | a/^f/a/e/ a/_e/a/^c/ a/B/a/c/ a/e/=e/_e/ | %75
 e/g/b/e/ c'2- c'/^f/a/d/ b2- | b/e/g/c/ a2- aB/^c/ _e=e/^f/ | [eg] z z [^fb] [eg] e/f/ ga/b/ | %78
 c'/4b/4c'/ z z a/4g/4a/- a_e/=e/ ^fa | a_e/=e/ ^fa- a_e/=e/ f/B/_e/f/ | %80
 b/a/g/b/ a/g/^f/a/ g/f/e/g/ f/e/_e/f/ | B/A/G/B/ A/G/^F/A/ G/F/E/G/ F/E/_E/F/ | %82
 E^F_A/4G/4A/=A B/4A/4B/c dc | BA_A/4G/4A/=A B/4A/4B/c de | %84
 c'/a/c'/e/ _e/b/a/g/ a/^f/a/c/ B/a/g/f/ | a/g/^f/e/ g/f/e/_e/ =e2 z2 | %86
 z4 e>f g/4f/4g/4f/4g/4f/4e/4f/4 | g z z2 d/e/d/e/ f/4e/4f/4e/4f/4e/4d/4e/4 | %88
 f z z2 f>g a/4g/4a/4g/4a/4g/4f/4g/4 | [fa] z z2 c/d/c/d/ e/4d/4e/4d/4e/4d/4c/4d/4 | %90
 e/4d/4e/ z/ z d/e/^f/ g/d/g/_B/ A/g/=f/e/ | fd z/ e/^f/_a/ =a/e/a/c/ B/a/g/f/ | %92
 g/e/g/_B/ A/g/f/e/ f/d/f/A/ G/f/e/d/ | e/c/e/G/ F/e/d/c/ B/G/d/B/ f/d/c/B/ | %94
 c/G/e/c/ g/e/d/c/ d/B/f/d/ a/f/e/d/ | e>f g/4f/4g/4f/4g/4f/4e/4f/4 g z z/ g/f/g/ | %96
 A/g/f/e/ f/A/B/f/ c/f/e/d/ e z | z4 z2 z G | AB c/d/e/c/ d/c/B/A/ G z | %99
 z/ G/F/E/ D/E/D/C/ B, z2 d | g/ c'/b/a/ g/a/g/f/ e z z b | c'/ c/B/A/ G/A/G/F/ E z z [GB] | %102
 c/ f/e/d/ c/d/c/B/ A z z/ A/G/F/ | E/F/E/D/ C z z E A/ d/^c/B/ | %104
 A/_B/A/G/ F z z [A^c] d/ D/^C/B,/ | %105
[I:staff +1] A,/_B,/A,/G,/ F,[I:staff -1] z z [^FA] [FAc]/ g/^f/e/ | %106
 d/_e/d/c/ _B z z [d^f] g/ G/^F/E/ | D/_E/D/C/ _B, z z ^FG D | =E^F G/A/_B/G/ F/c/E/c/ D/c/E/c/ | %109
 ^F/c/G/c/ A/c/G/c/ F/c/E/c/ D/c/E/c/ | ^F/c/G/c/ A/c/_B/A/ B/G/B/D/ C/B/A/G/ | %111
 A/F/A/C/ _B,/_A/G/^F/ G/_E/G/B,/ A,/G/F/=E/ | ^F z z d d _B/c/ de/^f/ | g z2 c cA/_B/ c_e | %114
 cA/_B/ c^f cA/B/ cg | cA/_B/ ca _b/a/g/b/ a/g/^f/a/ | d/c/_B/d/ c/B/A/c/ B/A/G/B/ A/G/^F/A/ | %117
 D/C/_B,/D/ C/B,/A,/C/ =B,GF_E | DC/4B,/4C/B,C D_EFE | DCB,D C/_E/G/_B/ A2- | %120
 A/c/_e/g/ ^f/e/d/c/ e/d/c/e/ d/c/_B/A/ | %121
 G z D/4E/4F/4G/4A/4B/4c/4d/4 e>f g/4f/4g/4f/4g/4f/4e/4f/4 | %122
 g2 z2 G/A/G/A/ _B/4A/4B/4A/4B/4A/4G/4A/4 | _B z z2 F/G/F/G/ A/4G/4A/4G/4A/4G/4F/4G/4 | %124
 A z z g/4f/4g/ ec/d/ ef/g/ | ac'/_b/a f/4e/4f/ dB/c/ de/f/ | gb/a/ g e/4d/4e/ cA/B/ cd/e/ | %127
 fa/g/ f d/4c/4d/ BG/A/ Bc/d/ | e z2 e/4d/4e/ e/g/f/e/ d/c/B/A/ | %129
 BG z g/4f/4g/ g/_b/a/g/ f/e/d/c/ | dB z g g/f/e/d/ c/_B/A/G/ | AB c/d/e/c/ d/c/B/A/ G/d/e/f/ | %132
 g/e/g/_B/ A/g/f/e/ fd z/ e/^f/_a/ | a/e/a/c/ B/a/g/^f/ g/e/g/_B/ A/g/=f/e/ | %134
 f/d/f/A/ G/f/e/d/ e/c/e/G/ F/e/d/c/ | B/G/d/B/ f/d/c/B/ c/G/e/c/ g/e/d/c/ | %136
 d/B/f/d/ a/f/e/d/ e/c/g/e/ c'/g/f/e/ | f/d/f/c/ f/B/f/A/ f/G/f/A/ f/B/f/c/ | %138
 f/d/f/c/ f/B/f/A/ f/G/f/A/ f/B/g | ed/c/ e/d/c/B/ c z z G | GE/F/ GA/B/ cd/B/ c z | %141
 z4 z2 z [CEG] | AF/G/ AB/c/ de/c/ dG | GE/F/ GA/B/ cd/B/ cF | FD/E/ FA F/4E/4F/D/E/ FB | %145
 d/e/f/e/ d/f/c/f/ B/c/d/c/ B/d/G/B/ | e/d/c/e/ d/c/B/d/ c/d/c/_B/ A/G/F/E/ | %147
 A/_B/A/G/ F/E/D/C/ B,/G/A/=B/ c/d/e/f/ | g f/e/ f/e/d/e/ c z z2 | z8 | z8 | %151
 z2 z f- fB/c/ df/4e/4f/- | fB/c/ df- fd/e/ f z | z efd e z z g- | %154
 gf/e/ d/c/B/A/ d/D/E/F/ G/A/B/G/ | cd/e/ GB cdef | ga/4g/4a/ _ba gfef | ga_bg a/f/a/c/ B/a/g/f/ | %158
 g/e/g/_B/ A/g/f/e/ f/d/f/A/ G/f/e/d/ | e/c/e/G/ F/e/d/c/ B/G/d/B/ f/d/c/B/ | %160
 c/G/e/c/ g/e/d/c/ d/B/f/d/ a/f/e/d/ | e/g/e/c/ G/c/G/E/ F/D/F/C/ F/B,/F/A,/ | %162
 F/G,/F/A,/ F/B,/F/C/ F/D/F/C/ F/B,/F/A,/ | F z z/ D/F/G/ B z z2 | %164
[Q:1/4=72] z2 _e2- ef/4e/4d/4e/4 c/4B/4c/4B/4c/4B/4c/ | [EGc]8 | z8 | %167
[M:6/8][Q:1/4=72]"^Adagio" !arpeggio!A>ef e/d/c/B/c/A/ | A/4_A/4=A/4_A/4=A/4_A/4=A/4_A/4=A BEA | %169
 d/e/f/4e/4d/4e/4f- f/e/d/b/e/4f/4e/4d/4 | c/4B/4c-c/B c/d/e/4d/4e/4d/4e/4d/4c/4d/4 | e2 z z2 z | %172
 z6 | z2 z z2 a/4g/4a/- | a/a/g/f/g/4f/4g/- gea | f/4e/4f/- f2- f/e/d/b/e/4f/4e/4d/4 | %176
 c/4B/4c/- c2- c/B/A/f/_B/4c/4B/4A/4 | _A=A/4_A/4=A/-A- A/B/ A/4_A/4=A/4_A/4=A/4_A/4=A/4_A/4 | %178
 A>ef e/4f/4e/4d/4c/4d/4c/4B/4A/4B/4A/4_A/4 | f/4e/4f/f<f- f3- | f/e/d/f/B/A/ B/4d/4B/4d/4gf | %181
 e/d/c/e/c/B/ cGg- | g/f/e/d/e/4d/4e/4c/4 d3- | d/c/_B/A/B/4A/4B/4G/4 A3- | %184
 A/G/F/E/F/D/ E/F/E/D/G | GE z z2 z | z6 | z6 | c>g_b a/g/f/e/f/d/ | ^c/4B/4c/-cd eAd | %190
 G/A/_B/4A/4G/4A/4B- B/A/G/e/A/G/ | F2 E F/G/A/4G/4A/4G/4A/4G/4F/4G/4 | %192
 A/4G/4A/4G/4A/4G/4A/4G/4A/4G/4A/4G/4 A/4G/4A/4G/4A/4G/4A/4G/4A/4G/4A/4G/4 | AG/F/G/4F/4G/- GEA | %194
 F>ED/E/ ^F/_A/=A/4_A/4=A/4_A/4=A/4_A/4F/4A/4 | A>ef e/4f/4e/4d/4c/4d/4c/4B/4c/4d/4c/4A/4 | %196
 _A/4F/4A/-A=A BE z | z6 | z6 | e>bc' b/a/g/^f/g/e/ | _e/4c/4e/-e=e ^fBe | %201
 A/B/c/4B/4A/4B/4c- c/B/A/^f/B/A/ | G/4F/4G/-G^F G/A/B/4A/4B/4A/4B/4A/4G/4A/4 | %203
 B3 b/4a/4b/4a/4b/4a/4b/4a/4b/4a/4b/4a/4 | b/a/g/^f/g/4f/4g/4e/4 f/4e/4f/- f2- | %205
 f/e/d/c/d/4c/4d/4B/4 c/4B/4c/- c2- | c/B/A/G/A/^F/ G/A/G/F/B | AG z z2 z | %208
 A>ef e/4f/4e/4d/4c/4d/4c/4B/4c/4d/4c/4A/4 | f/4e/4f/- f2- f/g/a[dd]- | %210
 [dd]/c/B/g/B/A/ B/[dd]/gf/4e/4f/ | e/4d/4e/- e2- e/[dd]/c/a/[dd]/c/ | B/4A/4B/- B2- B/A/G/e/A/G/ | %213
 ^F G2- G/4A/4G/4A/4 F2 | G2 g/4f/4g/- gf/e/f/4e/4f/- | fdg/4f/4g/ e2 z | %216
 z z a/4g/4a/- ag/f/g/4f/4g/- | gea f2 z | z z b/4a/4b/- ba/_a/=a/4_a/4=a/- | a^fb/4a/4b/ _a2 =a | %220
 bea d/e/f/4e/4d/4e/4f- | f/e/d/b/e/d/ c2 B | c/d/e/4d/4e/4d/4e/4d/4c/4d/4 e2 z | z6 | z6 | %225
 z2 a/4g/4a/4g/4 ag/f/g/4f/4g/- | gea f/4e/4f/- f2- | f/e/d/b/e/d/ c3- | %228
 c/B/A/f/_B/4A/4B/4_A/4 A=A/4_A/4=A/-A- | A/B/4A/4_A/4=A/4_A/4=A/4_A/4=A/4_A/4=A/4 A<d!fermata!^c | %230
 z6 |[M:4/4] z8[Q:1/4=120] | z8 | z8 | z8 | z G/A/ B/4A/4B/G cB ed/c/ | %236
 d/4c/4d3/2 e/g/c/e/ d/c/B/d/ c/e/A/c/ | B/A/G/A/ B/c/d EG A/4G/4A/c | %238
 D^F G/4F/4G/B C/B/A/G/ D/A/G/F/ | G2 z/ c/e/g/ a/4g/4a3/2- a/B/d/f/ | %240
 g2- g/A/c/e/ f/4e/4f3/2- f/G/B/d/ | e z z2 z2 c2- | c/B/A/B/ ca cg Af | %243
 GA/B/ c/d/c/B/ d/c/B/A/ z/ c/B/A/ | c/B/A/G/ z/ _B/A/G/ A2 =B2- | BG/B/ c2 cA/c/ d2- | %246
 dB/d/ e2- ed/^f/ a/e/d/c/ | B z z2 z/ G/A/B/ c/d/e/f/ | g/a/f/g/ e/c/A/c/ de ^f/g/a | %249
 d2 z d d/[ff]/e/d/ c2- | c/e/d/c/ B2- B/d/c/B/ A/c/B/A/ | B2 z e- e/e/d/c/ d2- | %252
 d/d/c/B/ c2- c/A/_B/G/ A/=B/c/d/ | e z f z g z b z | c' z z2 z4 | z8 | z8 | z8 | z8 | z8 | z8 | %261
 z8 | z8 | z c/d/ ec ge ag/f/ | g2 a/c'/f/a/ g/f/e/g/ f/a/d/f/ | e/d/c/d/ e/f/g Acdf | %266
 GB c/4B/4c/e F/e/d/c/ G/d/c/B/ | c/d/e/^f/ g/a/b/g/ e/f/g/a/ b/g/c'- | %268
 c'/a/b c'/b/a/c'/ b/a/g/b/ a/c'/^f/a/ | g z z/ c'/b/a/ g/^f/e/d/ c/b/a/g/ | %270
 ^f/e/d/c/ B/a/g/f/ e/d/c/B/ A/c/B/A/ | B/G/A/B/ c/B/A/G/ Ad z d | %272
 c/A/B/c/ d/c/B/A/ Be z e/4d/4e/ | ed z d/4c/4d/ dc z c- | c/A/B/c/ d/c/B/A/ B/d/e/f/ g/f/e/d/ | %275
 e2 z e dg z/ f/g/a/ | d g2 f- f/d/ e2 d- | de/f/ g/a/b/g/ c'4 | b2 z _b a z g z | %279
 f z e z d z e z | f z g z a z gf | e z z2 z/ G/B/d/ g2 | f2 z2 z/ A/c/e/ a2 | g4- gfcf | %284
 e/4d/4e/-e- e2 z gdg | f/4e/4f/-f- f2 z aea | g/4f/4g/-g- g2- g/ f/g/a/ _b/a/g/f/ | %287
 f/e/f/g/ a/g/f/e/ e/d/e/f/ g/f/e/d/ | c/4B/4c/-c- c4 _B2- | B_B_ec _B/A/G/^F/ G2- | G2 ^F2 G2 z2 | %291
 z8 | z8 | z8 | z8 | z8 | z8 | z8 | z8 | z8 | z2 _B4- B/A/G/A/ | _B/A/G/F/ z2 z4 | %302
 z2 d4- d/c/B/c/ | d/c/B/A/ z2 z4 | z/ G/A/B/ c/d/e/f/ e/d/c/B/ c>f | B>e- e/A/d- d/G/c- c/F/B | %306
 cB/A/ G4 F2- | F2 E2 E/G/F/E/ D/F/E/D/ | G2- G/_B/A/G/ F2- F/A/G/F/ | D>E ^F>F G>G A>A | %310
 B z z2 z4 | z8 | z8 | z8 | z8 | z8 | e8- | e g2 ^f2 e2 _e | %318
 e z z/ ^f/e/_e/ f/=e/_e/^c/ z/ =e/_e/c/ | e/_e/^c/B/ z/ d/=c/B/ c/B/A/G/ ^F/A/G/F/ | %320
 G z z B/^c/ _e/=e/^f/g/ a2- | a/c'/b/a/ gc' ^fb fa- | ag- g^f eg a2- | a/a/g/^f/ g2- g/e/f z g | %324
 z a z b z c' z b | z a z g z cB_e | e z z2 z4 | z4 z/ G/A/B/ c/B/A/G/ | e8 | d z z2 z4 | %330
 z4 z/ G/A/B/ c/B/A/G/ | d/4c/4d/-d- d2- d4 | c/d/c/B/ A/F/E/D/ CEDF | EA A_A A=A AB | Bc z2 z4 | %335
 z8 | z2 z c Be z/ d/e/f/ | Be- ed- d/B/c- cB- | Bc/d/ e/^f/_a/e/ =a4 | _a2 z =a f z e z | %340
 d z c z B z c z | d z e z f z ed | c z z A/B/ c/e/A/^c/ e/g/c/e/ | %343
 a/g/f/e/ d D/E/ ^F/A/D/F/ A/c/F/A/ | d/c/B/A/ G/^F/G/A/ B/d/G/B/ d/=f/B/d/ | %345
 g/f/e/d/ c/B/c/d/ e/g/c/e/ g/_b/e/g/ | c'/_b/a/g/ f z4 z | z8 | z8 | z8 | z8 | z8 | z4 z c'gc' | %353
 b/4a/4b/-b- b2 z c'gc' | a/4g/4a/-a- a2 z _bfb | g4- g/ f/g/a/ _b/a/g/f/ | %356
 f/e/f/g/ a/g/^f/e/ e/d/e/f/ g/=f/_e/d/ | c4- c2 _B2- | B_B_ec _B/A/G/^F/ G2- | G2 ^F2 G2 z2 | z8 | %361
 z8 | z8 | E/G/C/E/ G/c/^F/A/ d/c/B/A/ G/F/G/A/ | B/d/G/B/ d/f/B/d/ g/f/e/d/ cG/A/ | %365
 B/c/d/e/ f2 f/a/g/f/ ea | dg cf- f e2 d | ce f2- f/f/e/d/ e2- | e/c/d z e z f z g | %369
 z a z g z f z e | z dGB c z z2 |] %371
V:2
 [Gc]2 c2 [Gc] z x2 | x8 | x8 | G^F G2 G z x2 | x8 | x8 | x8 | x8 | x8 | x8 | x8 | %11
 z [EA][FA][DG] [EG] z z [CE] | [CE]C/D/ EC/D/ EF/D/ E z | z4 z/ c/B/A/ G/F/E/D/ | %14
 [Gc] z z2 z2 z [^FA] | [FB] z z2 z2 z [EG] | [EA] z/ x x2 x7/2 | x/ x/ x7/2 x/ x3 | x8 | x8 | %20
 z [DG][DG][C^F] [B,D] z z2 | x8 | x8 | x8 | x8 | x8 | x8 | z4 [DG]2 G2 | [GB] z z2 B2 ^c2 | %29
 d z z2 [EA]2 A2 | [Ac] z z2 c2 d2 | e z x2 x4 | x8 | x8 | x8 | x8 | x8 | g z z2 z4 | x8 | %39
 x4 DC D2 | x8 | x8 | z EED D2 x2 | x8 | x8 | x8 | x8 | x8 | x8 | x8 | x8 | x8 | x8 | %53
 z EEE [CE] z z2 | x8 | x8 | x8 | x8 | x8 | x8 | z4 [CE]2 E2 | E z z2 z2 z/ d^c/ | d z z2 z2 A2 | %63
 A z z F AG/A/ BB/c/ | de/c/ d z z4 | z2 z G GF G2 | G z x x5 | x8 | x8 | x8 | x8 | x8 | %72
 z2 z B BA B2 | x8 | x8 | x8 | x8 | B x z B B x x2 | x8 | x8 | x8 | x8 | x8 | x8 | x8 | x8 | %86
 x4 [Gc]2 c2 | [ce] z z2 _B=B ^c2 | d z z2 A2 d2 | d z z2 A2 z2 | x8 | x8 | x8 | x8 | x8 | %95
 [Gc]2 c2 c z x2 | x8 | z4 z2 z G | GF G2 G z x2 | x7 [GB] | [Bd]/ x/ x x2 x2 x [dg] | %101
 [eg]/ x/ x x2 x2 z D | [EG]/ x/ x x2 x4 | x4 z [A,^C] [^CE]/ z/ z | x4 z E [FA]/ x/ z | %105
 x4 x C D/ z/ z | x4 z A [_Bd]/ x/ x | x4 z DD D | CC D2 x4 | x8 | x8 | x8 | x2 z [Ac] [G_B] x x2 | %113
 x8 | x8 | x8 | x8 | x8 | x8 | x8 | x8 | x8 | [Gc]2 z2 E2 ^F2 | G z z2 D2 E2 | F z x2 x4 | x8 | %126
 x8 | x8 | x8 | x8 | x8 | z F G2 G z x2 | x8 | x8 | x8 | x8 | x8 | x8 | x8 | %139
 z [EA][FA][DG] [EG] z z [CE] | [CE]C/D/ EC/D/ EF/D/ E z | x8 | C z z2 z2 z [B,D] | %143
 C z z2 z2 z [A,C] | [A,D] z x2 x4 | x8 | x8 | x8 | x8 | x8 | x8 | x8 | x8 | %153
 z [Ac][Ad][GB] [Gc] z x2 | x8 | x8 | x8 | x8 | x8 | x8 | x8 | x8 | x8 | x8 | z2 c2- c z G2 | x8 | %166
 x8 |[M:6/8] !arpeggio!E2 x4 | x6 | x6 | x6 | x6 | x6 | x6 | x6 | x6 | x6 | x6 | x6 | x6 | x6 | %181
 x6 | x6 | x6 | x6 | x6 | x6 | x6 | x6 | x6 | x6 | x6 | x6 | x6 | x6 | x6 | x6 | x6 | x6 | x6 | %200
 x6 | x6 | x6 | x6 | x6 | x6 | x6 | x6 | x6 | x6 | x6 | x6 | x6 | x6 | x6 | x6 | x6 | x6 | x6 | %219
 x6 | x6 | x6 | x6 | x6 | x6 | x6 | x6 | x6 | x6 | x6 | x6 |[M:4/4] x8 | x8 | x8 | x8 | x8 | x8 | %237
 x8 | x8 | x8 | x8 | x8 | D/ z/ z z2 z4 | z2 G4 F2- | F2 E2 E/G/F/E/ D/E/F/G/ | %245
 F<E z/ ^F/G/A/ G<F z/ G/A/B/ | A<G z/ A/B/c/ B<A- A2- | A/A,/B,/C/ D/E/F/G/ E z z2 | %248
 z2 z E ^FG A2 | A/c/B/A/ G/F/E/D/ G2- G/B/A/G/ | ^F2 z/ A/G/F/ E2 F2 | %251
 z/ A/G/F/ E/D/[I:staff +1]C/B,/ C2- C/[I:staff -1]A/G/F/ | G2- G/F/E/D/ C2- CA | %253
 G z [Ac] z [ce] z [df] z | [eg] z z2 z4 | x8 | x8 | x8 | x8 | x8 | x8 | x8 | x8 | x8 | x8 | x8 | %266
 x8 | x8 | x8 | x8 | x8 | x8 | x8 | x8 | x8 | C/D/E/F/ G/A/B/c/ BB c2 | B e2 d- d/B/ c2 B- | %277
 Bc z2 z/ b/a/g/ fa | a/a/g/f/ e[cg] [cf] z [ce] z | [Fc]2 [Gc]2 [Ac]2 [Gc]2 | %280
 [Fc] z [ce] z [cd] z [Bd][Bd] | [Gc] z z2 z2 z/ e/^c/_B/ | [Ad]2 z2 z2 z/ ^f/_e/c/ | e2 x2 x4 | %284
 z cGc B4 | z dAd c4 | z/ B/^c/d/ e/d/c/B/ A[I:staff +1]GF_B | GFEA FEDG | %288
[I:staff -1] E^F/G/ A/G/^F/E/ G/^F/E/D/ G2- | G4 FA, z/ _B,/C/D/ | %290
 _E/D/C/_B,/ A,/=B,/C/D/ C/B,/A,/G,/ z2 | x8 | x8 | x8 | x8 | x8 | x8 | x8 | x8 | x8 | %300
 z2 z/ D/E/F/ G/F/E/D/ EG | C2 z2 z4 | z2 z/ ^F/_A/=A/ B/A/_A/F/ GB | E2 z2 z4 | z4 z2 z/ B/A- | %305
 A/-A/G F>F E>E D>D | C2 z/ D/C/B,/ F/E/D/C/ z/ C/B,/A,/ | C/B,/A,/G,/ z/ _B,/A,/G,/ A,2 =B,2- | %308
 B,/F/E/D/ C2- C/E/D/C/ =B,2 | z/ G,/C- C/A,/D- D/B,/E- E/A,/D | [DG] z z2 z4 | x8 | x8 | x8 | x8 | %315
 x8 | x8 | B2 c/e/A/c/ B/A/G/B/ A/c/^F/A/ | G/^F/E/F/ G/A/B[I:staff +1] ^CE^FA | %319
 B,_E=EG A,/[I:staff -1]G/^F/E/ _E/F/=E/_E/ | E z z2 z2 z/ e/_e/=e/ | _e2 =ea _ege^f | %322
 B2- BA G z z/ e/^f/g/ | ^f z z/ _e/=e/f/ e[ce] z [Be] | z [Ae] z [eg] z [e^f] z [eg] | x8 | x8 | %327
 x8 | z4 z/ ^F/_A/_B/ =B/_B/A/F/- | [FB] z z2 z4 | x8 | z4 z/ E/^F/_A/ =A/_A/^F/E/- | %332
 [EA] z z/ D/C/B,/ A,CB,D | C z D z E z F z | E z z2 z4 | x8 | A,/B,/C/D/ E/^F/_A/=A/ _A2 =A2 | %337
 _Ac- cB- B/A/=A- A_A- | A=A z2 z/ g/=f/e/ d=f- | f/f/e/d/ c[Ae] [Ad] z [Ac] z | %340
 [DA] z [EA] z [FA] z [FA] z | [DA] z [Ac] z [AB] z [_AB][AB] | [EA] z z2 x4 | x8 | x8 | x8 | x8 | %347
 x8 | x8 | x8 | x8 | x8 | x8 | z gdg _e4 | z fcf d4- | d/=B/^c/d/ e/d/c/B/ A[I:staff +1]GF_B | %356
 GFEA ^FEDG |[I:staff -1] E^F/G/ A/G/F/E/ G/F/E/D/ G2- | G4 ^FA, z/ _B,/C/D/ | %359
 _E/D/C/_B,/ A,/=B,/C/D/ C/B,/A,/G,/ z2 | x8 | x8 | x8 | x8 | x8 | z2 z/ c/B/A/ B2 cf | BeAd G3 F | %367
 E z z/ c/d/e/ d z z/ B/c/d/ | c[Ac] z [Gc] z [Fc] z [ce] | z [cd]/ z/ z [ce] z [Fc] z [Gc] | %370
 z [DA][B,D][DG] [EG] z z2 |] %371
V:3
 C2 C2 [G,C] z z/ E/D/E/ | F,/E/D/C/ D/F,/G,/D/ A,/D/C/B,/ C z | z4 z2 z C | %3
 CDG,C B, z z/ B,,/C,/D,/ | E,D,^C,A,, D,D,, z/ _A,/=A,/B,/ | C,^F,_E,B,, =E,D,^C,A, | %6
 D,C,B,,G, C,B,,A,,F, | G,G,, z G, G,G,, z G, | G,G,, z G, C/E/G,/C/ E,A, | D z DC B,A,G,A, | %10
 B,CDC B,A,G,B, | C A,F,G, C,/ C/B,/A,/ G,/F,/E,/D,/ | %12
 C,/C/B,/A,/ G,/F,/E,/D,/ C,B,,/A,,/ G,,/F,,/E,,/D,,/ | C,, z z2 z4 | %14
 C/D/E/D/ C/B,/A,/G,/ ^F,/C/E,/C/ F,/C/D,/C/ | B,/C/D/C/ B,/A,/G,/^F,/ E,/B,/D,/B,/ E,/B,/C,/B,/ | %16
 A,/B,/C/B,/ A,/C/G,/C/ ^F,/G,/A,/G,/ F,/A,/D,/A,/ | %17
 A,,/B,,/C,/B,,/ A,,/C,/G,,/C,/ ^F,,/G,,/A,,/G,,/ F,,/A,,/D,,/F,,/ | G,,B,,C,D, E,G,A,B, | %19
 CDEC DCB,A, | B, G,DD, G, z z2 | z8 | z8 | z8 | z8 | z8 | z8 | z4 G,,G, [G,C][E,G,] | %28
 [D,G,] z z2 G,,G, F,E, | D, z z2 A,,A, [A,D][F,A,] | [A,,E,A,] z z2 A,,A,G,F, | %31
 E, z[K:treble] z/ ^F/G/A/ B,E^CA, |[K:bass] DD,[K:treble] z/ _A/=A/B/ C^F_EB, | %33
[K:bass] EE,[K:treble] z/ _B/=B/^c/[K:bass] DB,EF, | CA,DD, B,G,CC, | D,D DD, z DDD, | %36
 z A,G,^F, DB, G,2 | B,,/D,/G,/B,/ D z z4 | z2 z/ D/C/D/ E,/D/C/B,/ C/E,/^F,/C/ | %39
 G,/C/B,/A,/ B, G, G,A,D,G, | D,E,^F,G, A,G,F,E, | D,E,^F,G, A,G,F,D, | z B,CA, B,2 x2 | %43
 B,G,/A,/ B,G,/A,/ B,C/A,/ B,/A,/G,/^F,/ | E,/E/_E/^C/ B,/A,/G,/^F,/ E,B,,E,, E, | %45
 CA,/B,/ CA,/B,/ CD/B,/ C/D/C/B,/ | A,/B,/C/B,/ A,/G,/F,/E,/ D,A,,D,, z | %47
 z/ G/F/E/ D/C/B,/A,/ _A,/D/^F,/D/ A,/D/E,/D/ | C/D/E/D/ C/B,/A,/G,/ F,/C/E,/C/ F,/C/D,/C/ | %49
 B,/C/D/C/ B,/D/A,/D/ _A,/=A,/B,/A,/ _A,/B,/E,/B,/ | %50
 B,,/C,/D,/C,/ B,,/D,/A,,/D,/ _A,,/=A,,/B,,/A,,/ _A,,/B,,/E,,/A,,/ | A,,C,D,E, F,G,A,A,, | %52
 D,E,F,D, E,D,C,B,, | z A,A,_A, =A, z z2 | z8 | z8 | z8 | z8 | z8 | z8 | z4 x2 B,_A, | %61
 A, z z2[K:treble] z/ A/G/A/ FE | D z z2[K:bass] x2 E^C | D z2 D, G,/A,/B,/A,/ G,/B,/D,/G,/ | %64
 B,,/D,/G,,/C,/ B,,/D,/G,,/B,,/ C,C,, z2 | z2 z C CDG,C | B, z z/ G,/A,/B,/ C/D/E/D/ C/_B,/A,/G,/ | %67
 F,F,, z/ F,/G,/A,/ B,/C/D/C/ B,/A,/G,/F,/ | E,E,, z/ E,/F,/G,/ A,/B,/C/B,/ A,/G,/F,/E,/ | %69
 D,D,, z/ D,/E,/F,/ G,/A,/B,/A,/ G,/F,/E,/D,/ | C,C,, z/ D/C/B,/ A,/G/^F/E/ F/A,/B,/F/ | %71
 C/^F/E/_E/ =E z z4 | z2 z E E^FB,E | ^F z FE _E^CB,C | _E=E^FE _E^CB,B | %75
 GE z/ C/D/E/ A,D z/ B,/C/D/ | G,C z/ A,/B,/C/ ^F,/E,/_E,/^C,/ B,,/A,,/G,,/^F,,/ | %77
 E,, z z B, E/^F/G/F/ E/D/C/B,/ | A, z z ^F,[I:staff -1] ^F/G/A/G/ F/A/F/_E/ | %79
[I:staff +1] A,/B,/C/B,/ A,/C/G,/C/ ^F,/G,/A,/G,/ F,/_E,/F,/B,/ | E,G,A,B, EG,C^F, | %81
 B,ECA, E,/^F,/G,/E,/ F,/G,/A,/F,/ | _A,/E/=A,/E/ B,/E/C/E/ D/E/C/E/ B,/E/A,/E/ | %83
 _A,/E/=A,/E/ B,/E/C/E/ D/E/C/E/ B,/E/_A,/E/ | A,2- A,/G,/^F,/E,/ CF,- F,/B,/^C/_E/ | %85
 EG,/A,/ B,B,, E,2 z2 | z4 C,C FC | C z z2[K:treble] GF EA | D z z2[K:bass] D,D [DG][_B,D] | %89
 D z z2 F,F GF | G z z/ ^F/G/A/ _B,E^CA, | DD,[K:treble] z/ _A/=A/B/ C^F_EB, | ED^CA D=CB,G | %93
 CB,A,F GG,[K:bass] z G, | G,G,, z G, G,G,, z G, | C2 [CF]2 C z z/ E/D/E/ | %96
 F,/E/D/C/ D/F,/G,/D/ A,/D/C/B,/ C z | z4 z2 z C | CDG,C B,/E/D/C/ B,/C/B,/A,/ | %99
 G,G,, G,,/G,/F,/E,/ D,/E,/D,/C,/ B,, G,, | F, z z/[I:staff -1] c/B/A/ G/A/G/F/E[I:staff +1] G, | %101
 C z z/ C/B,/A,/ G,/A,/G,/F,/ E, G,, | C, z z/[I:staff -1] F/E/D/ C/D/C/[I:staff +1]B,/ A,A,, | %103
 A,,/A,/G,/F,/ E,/F,/E,/D,/^C, A,, G, z | z/ D/^C/B,/ A,/_B,/A,/G,/ F, A,, D, z | %105
 z/ D,/^C,/B,,/ A,,/_B,,/A,,/G,,/^F,, A,, D,, z | %106
 z/[I:staff -1] G/^F/E/ D/_E/D/C/_B,[I:staff +1] D G, z | %107
 z/ G,/^F,/E,/ D,/_E,/D,/C,/_B,, A,_B, G, | G,A,D,G, A, x x x | A,G,^F,E, D,E,F,G, | %110
 A,G,^F,D, G,G,, z/ C,/D,/_E,/ | F,F,, z/ _B,,/C,/D,/ _E,_E,, z/ A,,/B,,/C,/ | %112
 D, z z/ D/E/^F/ G/ G,/^F,/E,/ D,/C,/_B,,/A,,/ | G,, z2 _E A,/_B,/C/B,/ A,/C/G,/C/ | %114
 ^F,/G,/A,/G,/ F,/A,/D,/A,/ A,,/_B,,/C,/B,,/ A,,/C,/G,,/C,/ | %115
 ^F,,/G,,/A,,/G,,/ F,,/A,,/D,/^F,/ G, z z2 | z G,C,D, G,G,, z2 | %117
 z _E,C,D, G,/F,/G,/E,/ G,/D,/G,/C,/ | G,/B,,/G,/C,/ G,/D,/G,/_E,/ G,/F,/G,/E,/ G,/D,/G,/C,/ | %119
 G,/B,,/G,/C,/ G,/D,/G,/B,,/ C,D,_E,C, | ^F,,2 z ^F, G,_B,,/C,/ D,D,, | %121
 G,,/4D,/4E,/4F,/4G,/4A,/4B,/4C/4 x2 C,C FC | C2 z2 C,C _B,A, | G, z z2 D,_B, CB, | %124
 C z z/ G,/A,/B,/ C/D/E/D/ C/_B,/A,/G,/ | F,F,, z/ F,/G,/A,/ B,/C/D/C/ B,/A,/G,/F,/ | %126
 E,E,, z/ E,/F,/G,/ A,/B,/C/B,/ A,/G,/F,/E,/ | D,D,, z/ D,/E,/F,/ G,/A,/B,/A,/ G,/F,/E,/D,/ | %128
 C,C,, z C- C/_B,/A,/G,/ F,/A,/G,/F,/ | G,G,, z E- E/D/C/_B,/ A,/C/=B,/A,/ | %130
 B,B,, z/ A,/G,/F,/ E,/D,/C,/D,/ E,/G,/F,/E,/ | x D G,C B, z z/ B,/^C/D/ | %132
 E,D,^C,A,, D,D,, z/ _A,/=A,/B,/ | C,^F,_E,B,, =E,D,^C,A, | D,C,B,,G, C,B,,A,,F, | %135
 G,G,, z G, G,G,, z G, | G,G,, z G, C/D/G,/C/ E,A, | D z DC B,A,G,A, | B,CDC B,A,G,B, | %139
 C A,F,G, C,/ C/B,/A,/ G,/F,/E,/D,/ | C,/C/B,/A,/ G,/F,/E,/D,/ C,B,,/A,,/ G,,/F,,/E,,/D,,/ | %141
 C,, z z2 z/ E,/D,/F,/ E,/G,/E,/C,/ | F,/G,/A,/G,/ F,/E,/D,/C,/ B,,/F,/A,,/F,/ B,,/F,/G,,/F,/ | %143
 E,/F,/G,/F,/ E,/D,/C,/B,,/ A,,/E,/G,,/E,/ A,,/E,/F,,/E,/ | %144
 D,/E,/F,/E,/ D,/F,/C,/F,/ B,,/C,/D,/C,/ B,,/D,/G,,/D,/ | F,,D,,/E,,/ F,,A,, F,,D,,/E,,/ F,,B,, | %146
 C,E,F,G, A,_B,CC, | F,G,A,F, G,F,E,D, | z CCB, C z z2 | z8 | z8 | %151
 z2[K:treble] z A D/E/F/E/ D/F/B,/D/ | G,/C/D/C/ B,/D/A,/C/ D/E/F/E/ D z | %153
 z[K:bass] A,D,G, C, z/ z E,/F,/G,/ | A,/C,/D,/E,/ F,2- F,/B,,/C,/D,/ E,/F,/G,/F,/ | %155
 E,C,G,F, E,/C/F,/C/ G,/C/A,/C/ | _B,/C/A,/C/ G,/C/F,/C/ E,/C/F,/C/ G,/C/A,/C/ | %157
 _B,/C/A,/C/ G,/C/B,/C/ F,E,D,=B, | E,D,^C,A, D,=C,B,,G, | C,B,,A,,F, G,G,, z G, | %160
 G,G,, z G, G,G,, z G, | C/E/C/G,/ E,/G,/E,/C,/ D, z D,C, | B,,A,,G,,A,, B,,C,D,C, | %163
 B,,/G,,/B,,/D,/ G,/ z/ z z4 | z2[I:staff -1] A2 G[I:staff +1] x[I:staff -1] D/=E/F | %165
[I:staff +1] C,8 | z8 |[M:6/8] !arpeggio!C2 z z2 z | E,>EF E/D/C/B,/C/A,/ | _A,2 =A, B,A,_A, | %170
 A,A,,_A, =A,_A,F, | E,2 z z2 z | z6 | z2 _A, =A,/E,/A,/C/B,/A,/ | %174
 B,/E,/B,/D/^C/B,/ C/A,/C/E/D/C/ | D/_B,/A,/G,/A,/D/ E,_A,E, | A,,C,A,, D,F,D, | E,F,D, E,E,,E, | %178
 A,,/C,/E,/A,/B,,/_A,/ C,/E,/=A,/_A,/=A,/F,/ | D,2 z z2 z | G,>DE D/C/B,/A,/B,/G,/ | %181
 C/4B,/4C/ C2- C3- | C/D/C/B,/C/F/ B,DB, | G, C2- C[I:staff -1]F/E/F/A/ | %184
 D/E/D/C/D/B,/ C/[I:staff +1]F,/G,G,, | C,2 z z2 z | z6 | z6 | C,2 z z2 z | %189
 A,,>A,_B, A,/G,/F,/E,/F,/D,/ | ^C,2 D, E,D,C, | D,D,,A,, D,C,_B,, | %192
 A,,C,A,, D,/A,,/D,/^F,/E,/D,/ | G,/D,/G,/_B,/A,/G,/ A,/E,/A,/^C/=B,/A,/ | %194
 D/_B,/A,/G,/F,/E,/ D,/B,,/E,/D,/C,/B,,/ | A,,/C,/E,/A,/D,/_A,/ C,/B,/A,/A,/A,/D/ | %196
 B,/E/_E/=E/_E/=E/ E,G,C | B,B,, z4 | z6 | E,2 z z2 z | B,,>B,C B,/A,/G,/^F,/G,/E,/ | %201
 _E,/4C,/4=E,/-E,-E, ^F,E,_E, | E,E,,_E, =E,D,C, | B,,D,B,, E,2 E,, | A,,C,A,, _E,^F,E, | %205
 B,, E,3 A,/G,/A,/C/ | ^F,/G,/F,/E,/F,/_E,/ =E,/A,/B,B,, | E,2 z4 | %208
 A,,/C,/E,/A,/B,,/_A,/ C,/E,/=A,/_A,/=A,/F,/ | D,2 z4 | G,,>D,E, D,/C,/B,,/A,,/B,,/G,,/ | %211
 C,/4B,,/4C,/- C,2- C,/4B,,/4C,/4B,,/4^F,,D,, | G,,B,,G,, C,E,C, | D,E,C, D,D,,D, | %214
 G,/D,/G,/B,/A,/G,/ A,/D,/A,/C/B,/A,/ | B,/G,/B,/D/C/B,/ C/G,/C/E/D/C/ | %216
 D/A,/D/^F/E/D/ G/D/G/_B/A/G/ | A/E/A/^c/B/A/ dD z | z z/ B,/A,/_A,/ =A,/B,/C/E/_E/^C/ | %219
 _E/B,/E/^F/=E/_E/ =E-E/E,/F, | E,/D,/C,/B,,/C,/A,,/ _A,,2 =A,, | B,,A,,_A,, =A,,A,_A, | %222
 A,G,F, E,2 z | z6 | z2 z z2 _A, | A,/E,/A,/C/B,/A,/ B,/E,/B,/D/^C/B,/ | %226
 ^C/A,/C/E/D/C/ D/_B,/A,/_A,/=A,/D/ | E,_A,E, A,,C,A,, | D,F,D, E,F,D, | E,E,,E, !fermata!A,,3 | %230
 z6 |[M:4/4] z[I:staff -1] C/D/ EC GE AG/F/ | G2 A/c/F/A/ G/F/E/G/ F/A/D/F/ | %233
 E/D/C/D/ E/F/G[I:staff +1] A,CDF | G,B,CE F,/E/D/C/ G,/D/C/B,/ | C2 z G,/F,/ E,/F,/D,/E,/ C,C- | %236
 C/B,/A,/B,/ CA B,GA,^F | G,/C/B,/A,/ G,/F,/E,/D,/ C,/B,/A,/G,/ ^F,/E,/D,/C,/ | %238
 B,,/A,/G,/^F,/ E,/D,/C,/B,,/ A,,/G,/F,/E,/ D,/C,/B,,/A,,/ | G,,/ G,/B,/D/ E2- E/F,/A,/C/ D2- | %240
 D/E,/G,/B,/ C2- C/D,/F,/A,/ B,/D/G,/B,/ | C/[I:staff -1]D/E/F/ G/A/B/c/ B/A/G/F/ EA | %242
[I:staff +1] G,2 A,/C/F,/A,/ G,/F,/E,/G,/ F,/A,/D,/F,/ | E,/D,/C,/D,/ E,/F,/G, A,,C,D,F, | %244
 G,,B,,C,E, F,,/E,/D,/C,/ G,,/D,/C,/B,,/ | C,E,A,,C, D,^F,B,,D, | E,G,C,E, ^F,A,D,F, | %247
 G,2 z4 C,2- | C,/B,,/A,,/B,,/ C,A, B,,G, A,,^F, | G,,2 z B,2 E, A,2- | A,D, G,2- G,C,D,D,, | %251
 G,,D, G,2- G,C, F,2- | F,G,, C,2- C,C,, C,C,, | C, z C,, z C, z C,, z | C, z z2 z4 | z8 | z8 | %257
 z8 | z8 | z8 | z8 | z8 | z8 | z8 | z8 | z8 | z8 | z[I:staff -1] G/A/ BG cB ed/c/ | %268
 d2 e/g/c/e/ d/c/B/d/ c/e/A/c/ | B/A/G/A/ B/c/d EGAc | D^FGB C/B/A/G/ D/A/G/F/ | %271
 G[I:staff +1] z z2 z/[I:staff -1] D/E/F/ G/F/E/D/ | %272
 E[I:staff +1]A, z A, E,/[I:staff -1]E/F/G/ A/G/F/E/ | F/D/E/F/ G/F/E/D/ E/C/D/E/ F/E/D/C/ | %274
 D/C/D/E/ F2- F/B,/C/D/ E/D/C/B,/ |[I:staff +1] z C/D/ EC GE AG/F/ | %276
 G2 A/c/F/A/ G/F/E/G/ F/A/D/F/ | E/D/C/D/ E/F/G A,C DF | G,B, CE F,/E/D/C/ G,/E/D/C/ | %279
 A,/E/D/C/ E,/E/D/C/ F,/E/D/C/ G,/D/C/B,/ | A,/C/B,/A,/ E,/_B,/A,/G,/ F,/A,/G,/F,/ G,G,, | %281
 C,,/C,/D,/E,/ F,/E,/D,/C,/ G,2 z2 | z/ D,/E,/F,/ G,/F,/E,/D,/ A,2 z2 | %283
 E, z z2 z/ F,/G,/A,/ _B,/A,/G,/F,/ | C/ C,/D,/E,/ F,/E,/D,/C,/ G,/ G,,/A,,/B,,/ C,/B,,/A,,/G,,/ | %285
 D,/ D,,/E,,/F,,/ G,,/F,,/E,,/D,,/ A,,/ A,/B,/C/ D/C/B,/A,/ | ED^CA, D4- | %287
 D2 C/4B,/4C/-C- C2 _B,2- | B,/ _B,/A,/G,/ ^F,/G,/A,/F,/ _B,,2- B,,/B,,/C,/D,/ | %289
 _E,/D,/C,/_B,,/ C,/G,,/A,,/B,,/ C,,C, B,,A,,/G,,/ | C,A,,D,D,, G,,2 z2 | z8 | z8 | z8 | z8 | z8 | %296
 z8 | z8 | z8 | z8 | z2 z G,/F,/ E,G,C,E, | F,F,, z2 z4 | z2 z B,/A,/ _A,B, E,A, | A,A,, z2 z4 | %304
 z C,/D,/ D,C, G,E, A,G,/F,/ | G,2 A,/C/F,/A,/ G,/F,/E,/G,/ F,/A,/D,/F,/ | %306
 E,/D,/C,/D,/ E,/F,/G, A,,C,D,F, | G,,B,,C,E, F,,/E,/D,/C,/ G,,/D,/C,/B,,/ | %308
 E,,/D,/C,/B,,/ A,,/G,,/F,,/E,,/ D,,/C,/B,,/A,,/ G,,/F,,/E,,/D,,/ | %309
 C,,/B,,/A,,/G,,/ D,,/C,/B,,/A,,/ E,,/D,/C,/B,,/ ^F,,/C,/B,,/A,,/ | G,, z z2 z4 | z8 | z8 | z8 | %314
 z8 | z8 | z z2 E,/^F,/ G,/B,/E,/G,/ A,/C/E,/F,/ | G,/B,/E,/G,/ A, z G, z ^F, z | %318
 E, z B,2- B,2 A,2- | A,2 G,2 ^F,G,A,B, | E,/_E,/=E,/^F,/ G,E, B,G, CB,/A,/ | %321
 B,2 C/E/A,/C/ B,/A,/G,/B,/ A,/C/^F,/A,/ | G,/^F,/E,/F,/ G,/A,/B, C,E,F,A, | %323
 B,,_E,=E,G, A,,/G,/^F,/E,/ B,,/G,/F,/E,/ | %324
 C,/G,/^F,/E,/ G,,/G,/F,/E,/ A,,/G,/F,/E,/ B,,/F,/E,/_E,/ | %325
 C,/E,/D,/C,/ G,,/D,/C,/B,,/ A,,/C,/B,,/A,,/ B,,B, | E, z z2 z4 | z8 | %328
 z/ _A,/_B,/=B,/ ^C/B,/_B,/A,/ B,C ^F,B, | B,, z z2 z4 | z8 | %331
 z/ ^F,/_A,/=A,/ B,/A,/_A,/F,/ A,B, E,A, | A,, z z2 A,, z z2 | A,, z A, z A,, z A, z | %334
 A,, z z2 z4 | z8 | z A,/B,/ CA, EC FE/D/ | E2 F/A/D/F/ E/D/C/E/ D/F/B,/D/ | %338
 C/B,/A,/B,/ C/D/E F,A,B,D | E,_A,=A,C D,/C/B,/A,/ E,/C/B,/A,/ | %340
 F,/C/B,/A,/ C,/C/B,/A,/ D,/C/B,/A,/ E,/B,/A,/_A,/ | F,/A,/G,/F,/ C,/G,/F,/E,/ D,/F,/E,/D,/ E,E,, | %342
 A,, z z2 z4 | [A,D] z z2 z4 | [D,G,] z z2 z4 | [G,C] z z2 z4 | [C,F,] z z2 z4 | z8 | z8 | z8 | %350
 z8 | z8 | z4 z/ C/D/_E/ F/E/D/C/ | G/ G,/A,/B,/ C/B,/A,/G,/ C/ C,/D,/_E,/ F,/E,/D,/C,/ | %354
 F,/F,,/G,,/A,,/ _B,,/A,,/G,,/F,,/ B,,/_B,/C/D/ C/B,/A,/G,/ | =ED^CA, D4- | D2 C4 _B,2- | %357
 B,/ _B,/A,/G,/ ^F,/G,/A,/F,/ _B,,2- B,,/B,,/C,/D,/ | %358
 _E,/D,/C,/_B,,/ C,/G,,/A,,/B,,/ C,,C, B,,A,,/G,,/ | C,A,,D,D,, G,,2 z G,,/A,,/ | %360
 B,,/D,/G,,/B,,/ D,/F,/B,,/D,/ G,/F,/E,/D,/ C,/B,,/C,/D,/ | %361
 E,/G,/C,/E,/ G,/C/^F,/A,/ D/C/B,/A,/ G,/F,/G,/A,/ | %362
 B,/D/G,/B,/[I:staff -1] D/F/B,/D/ G/F/E/D/ C/B,/C/D/ |[I:staff +1] z8 | z z4 C,/D,/ E,C, | %365
 F,E, A,G,/F,/ G,2 A,/C/F,/A,/ | G,/F,/E,/G,/ F,/A,/D,/F,/ E,/D,/C,/D,/ E,/F,/G, | %367
 A,,C,D,F, G,,B,,C,E, | F,/E/D/C/ G,/E/D/C/ A,/E/D/C/ E,/E/D/C/ | %369
 F,/E/D/C/ G,/D/C/B,/ A,/C/B,/A,/ E,/_B,/A,/G,/ | F,/A,/G,/F,/ G,G,, C, z z2 |] %371
V:4
 C2 A,2 E,2 x2 | x8 | z4 z2 z E, | F,D,E,C, G, x x2 | x8 | x8 | x8 | x8 | x8 | x8 | x8 | x8 | x8 | %13
 x8 | x8 | x8 | x8 | x8 | x8 | x8 | x8 | x8 | x8 | x8 | x8 | x8 | x8 | z4 x2 E,C, | G,, z z2 x4 | %29
 x6 F,D, | x8 | x3/2[K:treble] x13/2 |[K:bass] x2[K:treble] x6 | %33
[K:bass] x2[K:treble] x2[K:bass] x4 | x8 | x8 | x4 G,2 E,2 | x8 | x8 | x4 C,A,,B,,G,, | %40
 A, z x2 x4 | x8 | G,E,C,D, G,2 x B, | x8 | x8 | x8 | x8 | x8 | x8 | x8 | x8 | x8 | x8 | %53
 C, A,,E,E, A,, z z2 | x8 | x8 | x8 | x8 | x8 | x8 | z4 A,,A, _A,E, | A,, z z2[K:treble] x4 | %62
 x7/2[K:bass] x/ D,D ^CA, | C, x7 | x8 | z2 z E, F,D,E,C, | G, x7 | x8 | x8 | x8 | x8 | x8 | %72
 z2 z E, G,^F,G,E, | B, z x2 x4 | x8 | x8 | x8 | x8 | x8 | x8 | x8 | x8 | x8 | x8 | x8 | x8 | %86
 x4 x2 [A,C][F,A,] | [C,G,] z z2[K:treble] x4 | x z z2[K:bass] x x B,G, | [D,A,] z z2 x2 EC | %90
 C z x2 x4 | x3/2[K:treble] x13/2 | x8 | x6[K:bass] x2 | x8 | C2 A,2 E, z x2 | x8 | z4 z2 z E, | %98
 F,D,E,C, G, z z2 | x8 | x8 | x8 | x8 | x8 | x8 | x8 | x8 | x4 x D,G,, _B,, | %108
 _B,,A,,_B,,G,, D,E,^F,G, | x8 | x8 | x8 | x8 | x8 | x8 | x8 | x8 | x8 | x8 | x8 | x8 | %121
 x4 x2 [A,C][F,A,] | [E,G,]2 z2 x4 | x4 x2 A,G, | F, z x2 x4 | x8 | x8 | x8 | x8 | x8 | x8 | %131
 F,D, E,C, G, z x2 | x8 | x8 | x8 | x8 | x8 | x8 | x8 | x8 | x8 | x8 | x8 | x8 | x8 | x8 | x8 | %147
 x8 | E, C,G,G, C, z z2 | x8 | x8 | x[K:treble] x7 | x8 | x/[K:bass] x15/2 | x8 | x8 | x8 | x8 | %158
 x8 | x8 | x8 | x8 | x8 | x8 | z2 ^F,2 G,4 | x8 | x8 |[M:6/8] !arpeggio!A,,2 z z2 z | x6 | x6 | %170
 x6 | x6 | x6 | x6 | x6 | x6 | x6 | x6 | x6 | x6 | x6 | x6 | x6 | x6 | x6 | x6 | x6 | x6 | x6 | %189
 x6 | x6 | x6 | x6 | x6 | x6 | x6 | x6 | x6 | x6 | x6 | x6 | x6 | x6 | x6 | x6 | x6 | x6 | x6 | %208
 x6 | x6 | x6 | x6 | x6 | x6 | x6 | x6 | x6 | x6 | x6 | x6 | x6 | x6 | x6 | x6 | x6 | x6 | x6 | %227
 x6 | x6 | x6 | x6 |[M:4/4] x8 | x8 | x8 | x8 | x8 | x8 | x8 | x8 | x8 | x8 | %241
 z C,/D,/ E,C, G,E, A,G,/F,/ | x8 | x8 | x8 | x8 | x8 | x8 | x8 | x8 | x8 | x8 | x8 | x8 | x8 | %255
 x8 | x8 | x8 | x8 | x8 | x8 | x8 | x8 | x8 | x8 | x8 | x8 | x8 | x8 | x8 | x8 | x8 | x8 | x8 | %274
 x8 | x8 | x8 | x8 | x8 | x8 | x8 | x8 | x8 | x8 | x8 | x8 | x8 | x8 | x8 | x8 | x8 | x8 | x8 | %293
 x8 | x8 | x8 | x8 | x8 | x8 | x8 | x8 | x8 | x8 | x8 | x8 | x8 | x8 | x8 | x8 | x8 | x8 | x8 | %312
 x8 | x8 | x8 | x8 | x8 | x8 | x8 | x8 | x8 | x8 | x8 | x8 | x8 | x8 | x8 | x8 | x8 | x8 | x8 | %331
 x8 | x8 | x8 | x8 | x8 | x8 | x8 | x8 | x8 | x8 | x8 | x8 | [D,F,] z z2 z4 | [G,,B,,] z z2 z4 | %345
 [C,E,]2 z2 z4 | [F,,A,,] z z2 z4 | x8 | x8 | x8 | x8 | x8 | x8 | x8 | x8 | x8 | x8 | x8 | x8 | %359
 x8 | x8 | x8 | x8 | x8 | x8 | x8 | x8 | x8 | x8 | x8 | x4 C,, z z2 |] %371
V:5
 x8 | x8 | x8 | x8 | x8 | x8 | x8 | x8 | x8 | x8 | x8 | x8 | x8 | x8 | x8 | x8 | x8 | x8 | x8 | %19
 x8 | x8 | x8 | x8 | x8 | x8 | x8 | x8 | x8 | x8 | x8 | x8 | x8 | x8 | x8 | x8 | x8 | x8 | x8 | %38
 x8 | x8 | x8 | x8 | x8 | x8 | x8 | x8 | x8 | x8 | x8 | x8 | x8 | x8 | x8 | x8 | x8 | x8 | x8 | %57
 x8 | x8 | x8 | x8 | x8 | x8 | x8 | x8 | x8 | x8 | x8 | x8 | x8 | x8 | x8 | x8 | x8 | x8 | x8 | %76
 x8 | x8 | x8 | x8 | x8 | x8 | x8 | x8 | x8 | x8 | x8 | x8 | x8 | x8 | x8 | x8 | x8 | x8 | x8 | %95
 x8 | x8 | x8 | x8 | x8 | x8 | x8 | x8 | x8 | x8 | x8 | x8 | x8 | x8 | x8 | x8 | x8 | x8 | x8 | %114
 x8 | x8 | x8 | x8 | x8 | x8 | x8 | x8 | x8 | x8 | x8 | x8 | x8 | x8 | x8 | x8 | x8 | x8 | x8 | %133
 x8 | x8 | x8 | x8 | x8 | x8 | x8 | x8 | x8 | x8 | x8 | x8 | x8 | x8 | x8 | x8 | x8 | x8 | x8 | %152
 x8 | x8 | x8 | x8 | x8 | x8 | x8 | x8 | x8 | x8 | x8 | x8 | x8 | x8 | x8 |[M:6/8] x6 | x6 | x6 | %170
 x6 | x6 | x6 | x6 | x6 | x6 | x6 | x6 | x6 | x6 | x6 | x6 | x6 | x6 | x6 | x6 | x6 | x6 | x6 | %189
 x6 | x6 | x6 | x6 | x6 | x6 | x6 | x6 | x6 | x6 | x6 | x6 | x6 | x6 | x6 | x6 | x6 | x6 | x6 | %208
 x6 | x6 | x6 | x6 | x6 | x6 | x6 | x6 | x6 | x6 | x6 | x6 | x6 | x6 | x6 | x6 | x6 | x6 | x6 | %227
 x6 | x6 | x6 | x6 |[M:4/4] x8 | x8 | x8 | x8 | x8 | x8 | x8 | x8 | x8 | x8 | x8 | x8 | x8 | x8 | %245
 x8 | x8 | x8 | x8 | x8 | x8 | x8 | x8 | x8 | x8 | x8 | x8 | x8 | x8 | x8 | x8 | x8 | x8 | x8 | %264
 x8 | x8 | x8 | x8 | x8 | x8 | x8 | x8 | x8 | x8 | x8 | x8 | x8 | x8 | x8 | x8 | x8 | x8 | x8 | %283
 B/E/F/G/ A/G/F/E/ A4 | x8 | x8 | x8 | x8 | x8 | x8 | x8 | x8 | x8 | x8 | x8 | x8 | x8 | x8 | x8 | %299
 x8 | x8 | x8 | x8 | x8 | x8 | x8 | x8 | x8 | x8 | x8 | x8 | x8 | x8 | x8 | x8 | x8 | x8 | x8 | %318
 x8 | x8 | x8 | x8 | x8 | x8 | x8 | x8 | x8 | x8 | x8 | x8 | x8 | x8 | x8 | x8 | x8 | x8 | x8 | %337
 x8 | x8 | x8 | x8 | x8 | x8 | x8 | x8 | x8 | x8 | x8 | x8 | x8 | x8 | x8 | x8 | x8 | x8 | x8 | %356
 x8 | x8 | x8 | x8 | x8 | x8 | x8 | x8 | x8 | x8 | x8 | x8 | x8 | x8 | x8 |] %371
V:6
 GA/G/ F/E/D/C/ c/G/c/e/ g z | z4 z2 z/ e/d/e/ | F/e/d/c/ d/F/G/d/ E/d/c/B/ c G | %3
 AB c/d/e/c/ d/c/B/A/ G z | z2 z/ A/B/^c/ d/A/d/F/ E/d/=c/B/ | cA z/ B/^c/_e/ =e/B/e/G/ E/e/d/c/ | %6
 d/A/d/F/ D/d/c/B/ c/G/c/E/ A/G/F/E/ | Df z/ f/e/d/ eg z/ g/f/e/ | fa z/ a/g/f/ e/g/c/e/ G/e/d/c/ | %9
 B/f/A/f/ G/f/A/f/ B/f/c/f/ d/f/c/f/ | B/f/A/f/ G/f/A/f/ B/f/c/f/ d/f/g | e d/c/ e/d/c/B/ c z z2 | %12
 z4 z2 z G | GE/F/ GA/B/ cd/B/ c z | z8 | z8 | z8 | z8 | z8 | z8 | z4 z2 z d | %21
 e c/d/ e^f/g/ ab/g/ a d | d B/c/ de/^f/ ga/f/ g c | c A/B/ ce c/4B/4c/A/B/ c^f | %24
 c/4B/4c/A/B/ cg c/4B/4c/A/B/ ca | b/a/g/b/ a/g/^f/a/ g/a/g/=f/ e/d/c/B/ | %26
 e/f/e/d/ c/B/A/G/ ^F/D/E/F/ G/A/B/c/ | d c/B/ c/B/A/B/ G z z2 | %28
 B>c d/4c/4d/4c/4d/4c/4B/4c/4 d z z2 | A/B/A/B/4-B/4 c/4B/4c/4B/4c/4B/4=A/4B/4 c z z2 | %30
 c>d e/4d/4e/4d/4e/4d/4c/4d/4 e z z2 | G/A/G/A/ B/4A/4B/4A/4B/4A/4G/4A/4 B z z/ A/B/^c/ | %32
 d/A/d/F/ E/d/c/B/ cA z/ B/^c/_e/ | e/B/e/G/ ^F/e/d/^c/ d/B/d/=F/ E/d/=c/B/ | %34
 c/A/c/E/ D/c/B/A/ B/G/B/D/ C/B/A/G/ | ^F/D/A/F/ c/A/G/F/ G/D/B/G/ d/B/A/G/ | %36
 A/^F/c/A/ e/c/B/A/ B>c d/4c/4d/4c/4d/4c/4B/4c/4 | d z z/ d/c/d/ E/d/c/B/ c/E/^F/c/ | %38
 G/c/B/A/ B z z4 | z2 z D E^F G/A/B/G/ | c/A/c/G/ c/^F/c/E/ c/D/c/E/ c/F/c/G/ | %41
 c/A/c/G/ c/^F/c/E/ c/D/c/E/ c/F/d | BA/G/ B/A/G/^F/ G/B/A/G/ F/E/D/C/ | %43
 B,/C/D/C/ B,/C/D/C/ B,/C/A,/C/ B, B | B/4A/4B/G/A/ B^c/_e/ =e^f/_e/ =e/d/=c/B/ | %45
 c/d/e/d/ c/d/e/d/ c/d/B/d/ c c | c/4B/4c/A/B/ cd/e/ fg/e/ f z | z8 | z8 | z8 | z8 | z8 | z8 | %53
 z4 z/ E/^F/_A/ =A/B/c/A/ | d/e/f/e/ d/c/B/A/ _A/d/^F/d/ A/d/E/d/ | %55
 c/d/e/d/ c/B/A/G/ F/c/E/c/ F/c/D/c/ | B/c/d/c/ B/d/A/d/ _A/=A/B/A/ _A/B/E/B/ | %57
 d/4c/4d/B/c/ da d/4c/4d/B/c/ db/4a/4b/ | c'/b/a/c'/ b/a/_a/b/ =a/b/a/g/ f/e/d/^c/ | %59
 f/g/f/e/ d/c/B/A/ _A/E/^F/A/ =A/B/c/d/ | e d/c/ d/c/B/c/ A z z2 | %61
 A>B c/4B/4c/4B/4c/4B/4A/4B/4 c z z2 | d>e f/4e/4f/4e/4f/4e/4d/4e/4 f z/ z A/G/A/ | FA dc B z z2 | %64
 z2 z G GE/F/ GG/A/ | _Bc/A/ B G [GA][F=B] c/d/e/c/ | d/c/B/A/ G z z2 z c | AF/G/ AB/c/ df/e/ d B | %68
 GE/F/ GA/B/ ce/d/ c A | FD/E/ FG/A/ Bd/c/ B G | EC/D/ E^F/G/ A z z2 | %71
 z2 z/ e/^f/g/ A/g/f/e/ f/A/B/f/ | G/^f/e/_e/ =e B ^c_e =e/f/g/e/ | %73
 _e/a/^c/a/ B/a/c/a/ e/a/=e/a/ ^f/a/e/a/ | _e/a/^c/a/ B/a/c/a/ e/a/=e/a/ ^f/a/g/f/ | %75
 g/e/g/B/ A/g/^f/e/ f/d/f/A/ G/=f/e/d/ | e/c/e/G/ ^F/e/_e/^c/ e z z B | [GB]G/A/ B^c/_e/ =e z z A | %78
 A^F/G/ Ac AF/G/ A_e | A^F/G/ Ae AF/G/ A^f | g/^f/e/g/ f/e/_e/f/ B/A/G/B/ A/G/^F/A/ | %81
 G/^F/E/G/ F/E/_E/F/[I:staff +1] B,/A,/G,/B,/ A,/G,/^F,/A,/ | _A,EDC B,=A,_A,=A, | %83
 B,CDC B,A,_A,B, | A,/[I:staff -1]C/E/G/ ^F2- F/A/c/e/ _e/c'/b/a/ | B/b/a/g/ B/a/g/^f/ e2 z2 | %86
 E>F G/4F/4G/4F/4G/4F/4E/4F/4 [EG] z z2 | G/A/G/A/ _B/4A/4B/4A/4B/4A/4G/4A/4 B z z2 | %88
 F>G A/4G/4A/4G/4A/4G/4F/4G/4 [FA] z z2 | A/_B/A/B/ c/4B/4c/4B/4c/4B/4A/4B/4 c z/ z G/A/=B/ | %90
 c/G/c/_E/ D/c/_B/A/ BG z/ A/=B/^c/ | d/A/d/F/ E/d/c/B/ cA z/ B/^c/_e/ | %92
 e/B/e/G/ E/e/d/^c/ d/A/d/F/ D/d/=c/B/ | c/G/c/E/ A/G/F/E/ Df z/ f/e/d/ | %94
 eg z/ g/f/e/ fa z/ a/g/f/ | e/c/a/g/ x2 [gc'] z z2 | z4 z2 z/ e/d/e/ | %97
 F/e/d/c/ d/F/G/d/ E/d/c/B/ c G | AB c/d/e/c/ dF z/ e/d/c/ | B/c/B/A/ G z/ z G/F/E/ D/E/D/C/ | %100
 B, z z B c/ c'/b/a/ g/a/g/f/ | e z z b c'/ c/B/A/ G/A/G/F/ | E z z _A =A/ f/e/d/ c/d/c/B/ | %103
 A z/ z A/G/F/ E/F/E/D/ ^C z | z ^C D/ d/^c/B/ A/_B/A/G/ F z | %105
 z [A^c] d/ D/^C/B,/[I:staff +1] A,/_B,/A,/G,/ ^F,[I:staff -1] z | %106
 z [D^F] G/ g/^f/e/ d/_e/d/c/ _B z | z [d^f] g/G/^F/E/ D/_E/D/C/ _B, D | %108
 =E^F G/A/_B/G/ F/c/E/c/ D/c/E/c/ | c/D/c/E/ c/^F/c/G/ c/A/c/G/ c/F/c/E/ | %110
 c/D/c/E/ c/^F/G/F/ G/_B/d/G/ _e2- | e/A/c/F/ d2- d/G/_B/_E/ c2- | cD/=E/ ^FG/A/ _B z z d | %113
 _B G/A/ Bc/d/ _e z z c- | c^f/g/ ac- cf/g/ ac- | c^f/g/ a/d/f/a/ d_bca | %116
 _b/a/g/b/ a/g/^f/a/ d/c/_B/d/ c/B/A/c/ | _B/A/G/B/ A/G/^F/A/ GA=Bc | d_efe dcBc | %119
 d_efg e/c/e/G/ ^F/d/c/_B/ | c/A/c/_E/ D/c/_B/A/ c/B/A/G/ B/A/G/^F/ | %121
 G2 z2 x2 (9:8:9C/4D/4E/4F/4G/4A/4B/4c/4d/4 | e>f g/4f/4g/4f/4g/4f/4e/4f/4 g2 z2 | %123
 d/e/d/e/ f/4e/4f/4e/4f/4e/4d/4e/4 f z z2 | c/d/c/d/ e/4d/4e/4d/4e/4d/4c/4d/4 e z z c | %125
 AF/G/ AB/c/ df/e/ dB | GE/F/ GA/B/ ce/d/ cA | FD/E/ FG/A/ Bd/c/ BG | EC/D/ EF/G/ AF z f/4e/4f/ | %129
 f/a/g/f/ e/d/c/B/ cA z a- | a/c'/b/a/ g/f/e/d/ eg z _B | AB c/d/e/c/ d/c/B/A/ G z | %132
 z2 z/ A/B/^c/ d/A/d/F/ E/d/=c/B/ | cA z/ B/^c/_e/ =e/B/e/G/ E/e/d/c/ | %134
 d/A/d/F/ D/d/c/B/ c/G/c/E/ A/G/F/E/ | Df z/ f/e/d/ eg z/ g/f/e/ | fa z/ a/g/f/ e/g/c/e/ G/e/d/c/ | %137
 B/f/A/f/ G/f/A/f/ B/f/c/f/ d/f/c/f/ | B/f/A/f/ G/f/A/f/ B/f/c/f/ d/f/g | ed/c/ e/d/c/B/ c z z2 | %140
 z4 z2 z G | GE/F/ GA/B/ cd/B/ c z | z8 | z8 | z8 | z8 | z8 | z8 | z2 z/ g/f/g/ e/c'/d/b/ cd/e/ | %149
 f/g/a/g/ f/e/d/c/ B/f/A/f/ B/f/G/f/ | e/f/g/f/ e/d/c/B/ A/e/G/e/ A/e/F/e/ | %151
 d/e/f/e/ d/f/c/f/ B/c/d/c/ B/d/G/B/ | fd/e/ fa fd/e/ fg | e/d/c/e/ d/c/B/d/ c/d/c/_B/ A/G/F/E/ | %154
 A/_B/A/G/ F/E/D/C/ B,/G/A/=B/ c/d/e/f/ | gf/e/ f/e/d/e/ c2 c/4_B/4c/4B/4A | GFEF GA_BA | %157
 GF E/G/E/C/ A,/C/F z/ B/c/d/ | e/B/e/G/ E/e/d/^c/ d/A/d/F/ D/d/=c/B/ | %159
 c/G/c/E/ A/G/F/E/ DF z/ F/E/D/ | EG z/ G/F/E/ FA z/ A/G/F/ | %161
 E/G,/C/E/ G/E/C/G,/ B,/F/A,/F/ G,/F/A,/F/ | B,/F/C/F/ D/F/C/F/ B,/F/A,/F/ G,/F/A,/F/ | %163
 B, z z2 z2 z/ d/f/g/ | b/4a/4b/ z c2- cF/4G/4_E/ E/4D/4E/4D/4E/4D/4C/ | C8 | z8 |[M:6/8] z6 | z6 | %169
 z6 | A>ef e/d/c/B/c/A/ | _A/4F/4A/-A =A BEA | d/e/f/4e/4d/4e/4f- f/e/d/b/e/4f/4e/4d/4 | %173
 c/4B/4c/-cB c/d/e/4d/4e/4d/4e/4d/4c/4d/4 | e/4d/4e/- e2- e3- | e/d/c/B/c/4B/4c/4A/4 B3- | %176
 B/A/G/F/G/4F/4G/4E/4 F3- | F/E/D/C/D/B,/ C/D/C/B,/E | DC z4 | %179
 D-D/A/_B A/4B/4A/4G/4F/4G/4F/4E/4D/4E/4D/4C/4 | B/4A/4B/- B2- B/c/dG- | G/F/E/c/E/D/ E/G/c_B | %182
 A/4G/4A/- A2- A/G/F/d/G/F/ | E e2- e/d/c/a/d/c/ | B c2- c/d/c/4B/4c/4B/4c/4B/4c/4B/4 | %185
 c>ga g/f/e/d/e/c/ | B/4A/4B/-Bc dGc | F/G/A/4G/4F/4G/4A- A/G/F/d/G/F/ | %188
 E/4D/4E/-E- E/F/4G/4 F/G/A/4G/4A/4G/4A/4G/4F/4G/4 | A2 z z2 z | z6 | z2 z z2 d/4c/4d/- | %192
 dc/_B/c/4B/4c/- cAd | _B2 z z2 e/4d/4e/- | ed/c/d/4c/4d/- dBe | %195
 c2 B c/d/e/4d/4e/4d/4e/4d/4c/4d/4 | e>bc' b/a/g/^f/g/4f/4g/4e/4 | _e/4c/4e/- e=e ^fBe | %198
 A/B/c/4B/4A/4B/4c- c/B/A/^f/B/A/ | G2 ^F G/A/B/4A/4B/4A/4B/4A/4G/4A/4 | B2 z z2 z | z6 | %202
 z2 z z2 e- | ed/c/d- dBe | c/4B/4c/- c2- c/B/A/^f/B/4c/4B/4A/4 | G/4F/4G/- G2- G/^F/E/c/=F/E/ | %206
 _E=E/4_E/4=E/-E- E/^F/E/4_E/4=E/4_E/4=E/4_E/4=E/4_E/4 | %207
 E>Bc B/4c/4B/4A/4G/4A/4G/4^F/4G/4A/4G/4E/4 | c/4B/4c/- c2- c3- | c/B/A/c/F/E/ F/A/dc | %210
 B/A/G/B/G/^F/ GDd- | d/c/B/A/B/G/ A/4G/4A/- A2- | A/G/F/E/F/D/ E/4D/4E/- E2- | %213
 E/D/C/B,/C/A,/ B,/C/B,/A,/D | B,2 z z2 z | z z d/4c/4d/- dc/B/c/4B/4c/- | cAd B2 z | %217
 z z e/4d/4e/- ed/c/d- | dBe c2 z | z4 z2 | z2 z4 | z z2 A>ef | e/d/c/B/c/A/ _A2 =A | %223
 BEA d/e/f/4e/4d/4e/4f- | f/e/d/b/e/d/ c2 B | c/d/e/4d/4e/4d/4e/4d/4c/4d/4 e/4d/4e/- e2- | %226
 e3- e/d/c/B/c/4B/4c/4A/4 | B/4A/4B/- B2- B/A/G/F/G/4F/4G/4E/4 | F/4E/4F/- F2- F/E/D/C/D/B,/ | %229
 C/D/C/B,/E ^C<B,!fermata!A, | z6 |[M:4/4] z8 | z8 | z8 | z8 | z8 | z8 | z8 | z8 | z8 | z8 | z8 | %242
 z8 | z8 | z8 | z8 | z8 | z8 | z8 | z8 | z8 | z8 | z C/D/ EC GE AG/F/ | %253
 G2 A/c/F/A/ G/F/E/G/ F/A/D/F/ | E/D/C/D/ E/F/G A,C D/4C/4E/F | %255
 G,B, C/4B,/4C/E F,/E/D/C/ G,/D/C/B,/ | C/E/G/B/ c2- c/D/^F/A/ B2- | B/C/E/G/ x2 z G/A/ BG | %258
 cB ed/c/ d2 e/g/c/e/ | d/c/B/d/ c/e/A/c/ B/A/G/A/ B/c/d | EGAc D^FGB | %261
 C/B/A/G/ D/A/G/^F/ G/B,/D/F/ G2 | GE/G/ A2- AG/B/ d/A/G/F/ | E2 z2 z/ c/B/A/ G/F/E/D/ | %264
 E/G/c/_B/ A/F/A/d/ c/G/c/e/ A/d/f/d/ | g/f/e/f/ g4 f2- | f2 e2- e/g/f/e/4-e/4 d/f/e/d/ | %267
 ed/c/ B2 z/ e/d/c/ B/c/B/A/ | G2 E z G z A z | B d/c/ B/A/G/^F/ E2- E/E/F/G/ | %270
 AD z2 z2 z/ A/B/c/ | B z g z f z d z | c z a z g z g z | f z f z e z a z | a z f z d z B z | %275
 G z z G/A/ B/c/d/e/ f2- | f/a/g/f/ ea dg cf- | f e2 d ce f2- | f/f/e/d/ e2- e/c/d z e | %279
 z f z g z a z g | z f z e z d [B,DG][DGB] | c z z2 z4 | z8 | z8 | z8 | z8 | z8 | z8 | z8 | z8 | %290
 z8 | z/ D/^F/A/ d/B/_A/=F/ [=Ac]2 z2 | z/ E/=G/B/ e/^c/_B/=G/ [=Bd]/4[_Bc]/4[=Bd]/-[Bd]- [Bd-]2 | %293
 dcGc B/4A/4B/-B- B2 | z dAd c4 | z eB z d/4c/4d/-d- d2- | d/ c/d/e/ f/e/d/c/ c/B/c/d/ e/d/c/B/ | %297
 B/A/B/c/ d/c/B/A/ G/4F/4G/-G- G2- | G2 F2- FF_BG | F/E/D/^C/ D4 ^C2 | D2 z2 z4 | %301
 z2 c4- c/_B/A/B/ | c/_B/A/G/ z2 z4 | z2 f4- f/e/d/e/ | f/e/d/c/ z2 z4 | z8 | z8 | z8 | z8 | z8 | %310
 z/ d/e/^f/ g/a/b/c'/ b/a/g/f/ g>c' | ^f>b- b/e/a- a/d/g- g/c/^f | g^f/e/ d4 c2- | %313
 c2 B2- B/d/c/B/ A/c/B/A/ | d2- d/f/e/d/ c2- c/e/d/c/ | B2- B/e/^f/g/ a2- a/f/b/a/ | %316
 g/a/g/^f/ e/c/B/A/ GBAc | Be e_e e=e e^f | ^fg z2 z4 | z8 | z2 z G ^FB z/ A/B/=c/ | %321
 ^FB- BA- A/F/G- GF- | [_EF]G/A/ B/^c/_e/B/ =e4 | _e2 z =e c z B z | A z G z ^F z G z | %325
 A z B z c z BA | G/E/^F/G/ A/G/F/E/ c4- | c4 B z z2 | z8 | z/ D/E/^F/ G/F/E/D/ A4- | A4 G z z2 | %331
 z8 | a/4g/4a/-a- a2- a4- | ac' c'b ba a_a | a z z/ b/a/_a/ b/=a/_a/^f/ z/ =a/_a/f/ | %335
 a/_a/^f/e/ z/ g/=f/e/ f/e/d/c/ B/d/c/B/ | c z z E/^F/ _A/=A/B/c/ d2 | d/f/e/d/ cf Be =Ad- | %338
 dc- cB Ac d2- | d/d/c/B/ c2- c/A/B z c | z d z e z f z e | z d z c z [DB][B,E][E_A] | %342
 AA/B/ cA e^c gf/e/ | f D/E/ FD A^F cB/A/ | BG/A/ BG dB/4A/4B/ fe/d/ | eC/D/ EC GE _BA/G/ | %346
 A4 z cGc | _B4 z dAd | c4- c/ _B/c/d/ _e/d/c/B/ | _B/A/B/c/ d/c/=B/A/ A/G/A/B/ c/_B/_A/G/ | %350
 F4- F2 _E/4D/4E/-E- | E_E_AF E/D/C/=B,/ C2- | C2 =B,2 C2 z2 | z8 | z8 | z8 | z8 | z8 | z8 | z8 | %360
 z8 | z8 | z8 | GE cB/A/ B/A/G/A/ BG | dB fe/d/ e/ z/ z z e | dg z/ f/g/a/ dG- GF- | %366
 F/D/E- ED- DE/F/ G/A/B/G/ | c4 B2 z _B | A z G z F z E z | D z E z F z G z | A z GF E z z2 |] %371
V:7
 [CE]2 C z z4 | x8 | x4 x2 x G | GF G2 G z x2 | x8 | x8 | x8 | x8 | x8 | x8 | x8 | %11
 z [EA][FA][DG] [EG] z x2 | x7 [CE] | [CE]C/D/ EC/D/ EF/D/ E x | x8 | x8 | x8 | x8 | x8 | x8 | %20
 x7 [GB] | [Gc] z z2 z2 z [^FA] | [FB] z z2 z2 z [EG] | [EA] z x2 x4 | x/ x/ x7/2 x/ x3 | x8 | x8 | %27
 z [DG][DG][C^F] [B,D] z z2 | [DG]2 G2 [GB] x3 | F^F _A2 =A z x x | [EA]2 x2 [Ac] x3 | E2 x2 x4 | %32
 x8 | x8 | x8 | x8 | x4 D2 G2 | [DG] x2 x x4 | x8 | z2 z D DC D2 | ^F x x2 x4 | x8 | z EED D z x2 | %43
 x8 | x8 | x8 | x8 | x8 | x8 | x8 | x8 | x8 | x8 | x8 | x8 | x8 | x8 | x8 | x8 | x8 | %60
 z EEE C z z2 | [CE]2 E2 E x3 | [FA]2 A2 A x3 | z2 z/ GF/ G z z2 | z2 z D EC/D/ EE/F/ | %65
 GA/F/ GC CD G2 | G z x2 x4 | x8 | x8 | x8 | x8 | x8 | x2 z B BA B2 | x8 | x8 | x8 | %76
 z2 x2 x z z [^FA] | E x x2 x4 | x8 | x8 | x8 | x8 | x8 | x8 | x8 | x8 | [G,C]2 C2 C z z2 | %87
 E2 ^F2 G z z2 | [A,D]2 D2 D z z2 | F2 G2 A x3 | x8 | x8 | x8 | x8 | x8 | x2 f/e/d/c/- c z z2 | %96
 x8 | x7 G | GF G2 GD x2 | x8 | x2 x [DG] [DG]/ x/ x x2 | x2 x [dg] [eg]/ x/ x x2 | %102
 x2 z [B,E] [CE]/ x/ x x2 | x8 | x8 | z E [FA]/ x/ x x4 | z A, [B,D]/ x/ x x4 | %107
 z A [_Bd]/ x/ x x2 x D | CC D2 x4 | x8 | x8 | x8 | x4 [DG] z z [DA] | [DG] z x2 x4 | x8 | x8 | %116
 x8 | x8 | x8 | x8 | x8 | x8 | G2 c2 [Gc]2 z2 | _B=B ^c2 d z z2 | AA B2 c z x2 | x8 | x8 | x8 | %128
 x8 | x8 | x4 x2 x [A,G] | [CG]F G2 G z x2 | x8 | x8 | x8 | x8 | x8 | x8 | x8 | %139
 z [EA][FA][DG] [EG] z z2 | x7 [CE] | [CE]C/D/ EC/D/ EF/D/ E z | x8 | x8 | x8 | x8 | x8 | x8 | x8 | %149
 x8 | x8 | x8 | x8 | x8 | x8 | x8 | x8 | x8 | x8 | x8 | x8 | x8 | x8 | x8 | x2 A2 G z B,2 | x8 | %166
 x8 |[M:6/8] x6 | x6 | x6 | [CE]2 x4 | x6 | x6 | x6 | x6 | x6 | x6 | x6 | x6 | x6 | x6 | x6 | x6 | %183
 x6 | x6 | x6 | x6 | x6 | x6 | x6 | x6 | x6 | x6 | x6 | x6 | x6 | x6 | x6 | x6 | x6 | x6 | x6 | %202
 x6 | x6 | x6 | x6 | x6 | x6 | x6 | x6 | x6 | x6 | x6 | x6 | x6 | x6 | x6 | x6 | x6 | x6 | x6 | %221
 x6 | x6 | x6 | x6 | x6 | x6 | x6 | x6 | x6 | x6 |[M:4/4] x8 | x8 | x8 | x8 | x8 | x8 | x8 | x8 | %239
 x8 | x8 | x8 | x8 | x8 | x8 | x8 | x8 | x8 | x8 | x8 | x8 | x8 | x8 | x8 | x8 | x8 | x8 | %257
 x2 A/4G/4A3/2- A/B,/D/^F/ GG- | G3 A B2- BA | AG-G^F G z D2- | D2 C4 B,2- | %261
 B,/D/C/B,/[I:staff +1] A,/C/B,/A,/ G,[I:staff -1] z z/ C/D/E/ | D<C z/ D/E/F/ E<D- D2- | %263
 D/C/[I:staff +1]B,/A,/ G,/F,/E,/D,/ E,[I:staff -1] z z2 | z E2 D2[I:staff +1] C2 B, | %265
 C2[I:staff -1] z ecA z d | BG z c A2 B2 | c2 z/ F/G/E/ C[I:staff +1]G,[I:staff -1] z ^F | %268
 z/ C/D/B,/ C z [B,D] z [C^F] z | [DG] z z2 z/ D/C/[I:staff +1]B,/ A,/G,/F,/E,/ | %270
 D,2- D,/D,/E,/^F,/ G,/A,/B,/C/ F,[I:staff -1]D | D z d z d z A z | A z e z e z B z | %273
 A z G z G z c z | c z c z B z G z | E z z2 z2 z/ c/B/A/ | B2 cf Be Ad | G3 F E z z/ c/d/e/ | %278
 d2 z/ B/c/d/ c[Ac] z [Gc] | x [Fc]2 [ce]2 [cd]2 [ce]/ x/ | x [Fc] z [Gc] z [DA] x2 | %281
 [EG] z z2 z4 | x8 | x8 | x8 | x8 | x8 | x8 | x8 | x8 | x8 | x2 x2 E2 z2 | %292
 x4 ^F/B,/=C/D/ E/D/C/B,/ | E4 z GDG | ^F4 z AEA | G4 z/ ^F/_A/=A/ B/A/_A/F/ | %296
 E[I:staff +1]DCF DCB,E | CB,A,D[I:staff -1] B,^C/D/ E/D/C/B,/ | D/^C/B,/A,/ D2- D4 | %299
 D[I:staff +1]G,[I:staff -1] z/[I:staff +1] F,/G,/A,/ _B,/A,/G,/F,/ E,/F,/G,/A,/ | %300
 G,/F,/E,/D,/[I:staff -1] z2 z4 | z2 z/ E/^F/G/ A/G/F/E/ FA | D2 z2 z4 | z2 z/ A/B/c/ d/c/B/A/ Bd | %304
 E2 z2 z4 | x8 | x8 | x8 | x8 | x8 | x8 | e/e/d c>c B>B A>A | G2 z/ A/G/^F/ A/G/F/E/ z/ G/F/E/ | %313
 G/^F/E/D/ z/ =F/E/D/ E2 ^F2- | F/c/B/A/ G2- G/B/A/G/ ^F2- | F/A/G/^F/ E z z/ g/^f/e/ _e2 | x8 | %317
 G2 A z B z c z | B z z2 z4 | x8 |[I:staff +1] E,/^F,/G,/A,/[I:staff -1] B,/^C/_E/=E/ _E2 =E2 | %321
 _EG-G^F- F/E/=E- E_E- | E=E z2 z/ d/=c/B/ Ac- | c/-c/B/A/ G [EB] [EA] z [EG] z | %324
 [A,E] z [B,E] z [CE] z [B,E] z | x8 | [B,E] z z2 z4 | z/ D/E/^F/ G/F/E/D/- D z z2 | x8 | x8 | %330
 z/ B,/^C/_E/ =E/_E/C/B,/- [B,=E] z z2 | x8 | z A/B/ cA ec fe/d/ | e2 f/a/d/f/ e/d/c/e/ d/f/B/d/ | %334
 c/B/A/B/ c/d/e[I:staff +1] ^FABd | E_A=Ac D/[I:staff -1]c/B/A/ _A/B/=A/_A/ | %336
 A z z2 z2 z/ A/_A/=A/ | _A2 =Ad _Ac FB | E3 D C z z/ A/B/c/ | B2 z/ _A/=A/B/ A[FA] z [EA] | %340
 x [DA] z [Ac] z [AB] z [Ac] | z [DA] z [EA] z F_A,B, | [CE] z z2 x4 | x8 | x8 | x8 | z FCF E4 | %347
 z GDG F4 | z/ E/^F/G/ A/G/F/E/ D[I:staff +1]C_B,_E | C_B,A,D =B,A,G,C | %350
[I:staff -1] =A,=B,/C/ D/C/B,/A,/ C/B,/A,/G,/ C2- | %351
 C4- C[I:staff +1]F,[I:staff -1] z/[I:staff +1] _E,/F,/G,/ | %352
 _A,/G,/F,/_E,/ D,/E,/F,/G,/ F,/=E,/D,/C,/[I:staff -1] z2 | x8 | x8 | x8 | x8 | x8 | x8 | x8 | x8 | %361
 x8 | x8 | x8 | z4 z/ D/E/F/ G/A/B/c/ | BB c2 BE- ED | D/B,/C- CB,- B,C z2 | %367
 z/ B/A/G/ FA- A/A/G/F/ EG | [CF]2 [CE]2 [F,C]2 [G,C]2 | [A,C] z [G,C] z [F,C] z [CE] z | %370
 [CD] z [B,D][B,D] [G,C] z z2 |] %371
V:8
 [E,G,]2 [C,A,]2 [G,,C,] z z2 | z4 z2 z/ G/F/G/ | A,/G/F/E/ F/A,/B,/F/ C/F/E/D/ E C | %3
 CDG,C B, z z2 | z2 z/ ^C/D/E/ F,B,_A,E, | A,A,, z/ _E/=E/^F/ G,E,A,A,, | F,D,G,G,, E,C,F,F,, | %7
 G,,G, G,G,, z G, G,G,, | z DCB, C/G,/E,/F,/ C,F, | G,A,B,C DCB,A, | G,A,B,C DCB,G, | %11
 C A,F,G, C,/ C,/B,,/A,,/ G,,/F,,/E,,/D,,/ | C,, z z2 z/ C/B,/A,/ G,/F,/E,/D,/ | %13
 C,/C/B,/A,/ G,/F,/E,/D,/ C,B,,/A,,/ G,,/F,,/E,,/D,,/ | C,, z z2 z4 | z8 | z8 | z8 | z8 | z8 | %20
 z4 z/ D,/E,/^F,/ G,/A,/B,/G,/ | C/D/E/D/ C/B,/A,/G,/ ^F,/C/E,/C/ F,/C/D,/C/ | %22
 B,/C/D/C/ B,/A,/G,/^F,/ E,/B,/D,/B,/ E,/B,/C,/B,/ | %23
 A,/B,/C/B,/ A,/C/G,/C/ ^F,/G,/A,/G,/ F,/A,/D,/A,/ | %24
 A,,/B,,/C,/B,,/ A,,/C,/G,,/C,/ ^F,,/G,,/A,,/G,,/ F,,/A,,/D,,/F,,/ | G,,B,,C,D, E,G,A,B, | %26
 CDEC DCB,A, | B, G,DD, G, z z2 | G,,G, [G,C][E,G,] [D,G,] z z2 | DC B,E A, z z2 | %30
 A,,A, [A,D][F,A,] [E,A,] z z2 | C,C DC D z z/ ^C/D/E/ | F,B,_A,E, =A,A,, z/ _E/=E/F/ | %33
 G,^C_B,^F, =B,A,_A,E | A,G,^F,D G,F,E,C | DD, z D, D,D,, z D, | D,D,, z D, G,2 C2 | %37
 G, z z/ B,/A,/B,/ C,/B,/A,/G,/ A,/C,/D,/A,/ | E,/A,/G,/^F,/ G, z z4 | z2 z G, G,A,D,G, | %40
 D, z A,G, ^F,E,D,E, | ^F,G,A,G, F,E,D,F, | z B,CA, B, z D,/C,/B,,/A,,/ | %43
 G,,/G,/^F,/E,/ D,/C,/B,,/A,,/ G,,D,G, G, | G,E,/^F,/ G,E,/F,/ G,A,/F,/ G,/B,/A,/_A,/ | %45
[K:treble] A,/A/_A/^F/ E/D/C/B,/[K:bass] A,E,A,, A, | A,^F,/_A,/ =A,B,/^C/ DE/C/ D z | z8 | z8 | %49
 z8 | z8 | z8 | z8 | z4 z2 z A, | F,D,/E,/ F,_A,/=A,/ B,C/A,/ B, _A, | %55
 E,C,/D,/ E,F,/G,/ A,B,/_A,/ =A, F, | D,B,,/C,/ D,F, D,B,,/C,/ D,_A, | %57
 B,/C/D/C/ B,/D/A,/D/ _A,/=A,/B,/A,/ _A,/B,/E,/A,/ | A,,C,D,E, F,G,A,A,, | D,E,F,D, E,D,C,B,, | %60
 z A,A,_A, =A, z z2 | x2 B,_A, =A, z z2 | x2 E^C D z z2 | z/ D/C/D/ B,A, G, z z2 | %64
 z2 z B, G, x C,/E,/G,,/C,/ | E,,/G,,/C,,/F,,/ E,,/G,,/C,,/E,,/ x2 G,C | B, z z2 z2 z/ C,/D,/E,/ | %67
 F,/G,/A,/G,/ F,/E,/D,/C,/ B,,B, z/ B,,/C,/D,/ | E,/F,/G,/F,/ E,/D,/C,/B,,/ A,,A, z/ A,,/B,,/C,/ | %69
 D,/E,/F,/E,/ D,/C,/B,,/A,,/ G,,G, z/ G,,/A,,/B,,/ | C,/D,/E,/D,/ C,/B,,/A,,/G,,/ ^F,,^F, z2 | %71
 z2[K:treble] z/ G/A/B/ ^C/B/A/G/ A/C/_E/A/ | E/A/G/^F/ G[K:bass] E EFB,E | %73
 B,,^C,_E,=E, ^F,E,_E,C, | B,,^C,_E,=E, ^F,E,_E,B,, | E,E,, z/ A,,/B,,/C,/ D,D,, z/ G,,/A,,/B,,/ | %76
 C,C,, z/ ^F,,/G,,/A,,/ B,, z z/ B,/^C/_E/ | E/ E,/D,/C,/ B,,/A,,/G,,/^F,,/ E,, z z C | %78
 ^F,/G,/A,/G,/ F,/A,/E,/A,/ _E,/=E,/F,/E,/ _E,/F,/B,,/F,/ | %79
 ^F,,/G,,/A,,/G,,/ F,,/A,,/E,,/A,,/ _E,,/=E,,/F,,/E,,/ _E,,/F,,/B,,/_E,/ | E, z z2 z C,A,,B,, | %81
 E,E,, z2 z C,A,,B,, | E,/D,/E,/C,/ E,/B,,/E,/A,,/ E,/_A,,/E,/=A,,/ E,/B,,/E,/C,/ | %83
 E,/D,/E,/C,/ E,/B,,/E,/A,,/ E,/_A,,/E,/=A,,/ E,/B,,/E,/_A,,/ | A,,B,,C,A,, _E,,2 z _E, | %85
 E,G,/A,/ B,B,, E,,2 z2 | C,,C, F,2 C, z z2 | C,C _B,A, G, z z2 | D,,D, [D,G,]2 D, z z2 | %89
 D,D C_B, A, z/ z =B,/C/D/ | E,A,^F,D, G,G,, z/ ^C/D/E/ | F,B,_A,E, =A,A,, z/ _E/=E/^F/ | %92
 G,E,A,A,, F,D,G,G,, | E,C,F,F,, G,,G,G,G,, | z G,G,G,, z DCB, | GE C2 C,/G,/C/E/ G z | %96
 z4 z2 z/ G/F/G/ | A,/G/F/E/ F/A,/B,/F/ C/F/E/D/ E C | CDG,C B,[I:staff -1]B,[I:staff +1] z2 | %99
 z/ E/D/C/ B,/C/B,/A,/ G,G,, G,,/G,/F,/E,/ | D,/E,/D,/C,/ B,, G,, C, z z/[I:staff -1] c/B/A/ | %101
 G/A/G/F/E[I:staff +1] G, C, z z/ C/B,/A,/ | G,/A,/G,/F,/ E, E,, A,, z z/ F/E/D/ | %103
 C/D/C/B,/ A,A,, A,,/A,/G,/F,/ E,/F,/E,/D,/ | ^C, [E,A,] [F,A,]/ x/ z z/ D/^C/=B,/ A,/_B,/A,/G,/ | %105
 F, A,, D,, z z/ D,/^C,/B,,/ A,,/_B,,/A,,/G,,/ | ^F,, D,, G,, z z/[I:staff -1] G/^F/E/ D/_E/D/C/ | %107
 _B,[I:staff +1] D, G,, z z/ G,/^F,/E,/ D,/_E,/D,/C,/ | G,A,D,G, A, x x x | ^F,E,D,E, F,G,A,G, | %110
 ^F,E,D,D _B,G, z/ _E/F/G/ | CA, z/ D/E/^F/ _B,G, z/ C/D/_E/ | %112
 A,/G,/^F,/E,/ D,/C,/_B,,/A,,/ G,, z z D, | G,/A,/_B,/A,/ G,/F,/_E,/D,/ C, z z[K:treble] A, | %114
 A/_B/c/B/ A/c/A/^F/ C/D/_E/D/ C/E/_B,/E/ |[K:bass] A,/_B,/C/B,/ A,/^F,/A,/D/ B,_E/D/ EC | %116
 G z z2 z _ECD | G,/A,/_B,/G,/ A,/B,/C/A,/[K:treble] =B,/G/C/G/ D/G/_E/G/ | %118
 F/G/_E/G/ D/G/C/G/ B,/G/C/G/ D/G/E/G/ | F/G/_E/G/ D/G/B,/G/ C2- C/_B,/A,/G,/ | %120
 _EA,- A,/D/=E/^F/ G[K:bass]_B,/C/ DD, | G,2 z2 z/4 C,/4D,/4E,/4F,/4G,/4A,/4B,/4 z2 | %122
 C,C FC C2 z2 | G,G FE D z z2 | F,F GF G z z/ C,/D,/E,/ | %125
 F,/G,/A,/G,/ F,/E,/D,/C,/ B,,B, z/ B,,/C,/D,/ | E,/F,/G,/F,/ E,/D,/C,/B,,/ A,,A, z/ A,,/B,,/C,/ | %127
 D,/E,/F,/E,/ D,/C,/B,,/A,,/ G,,G, z/ G,,/A,,/B,,/ | C,/D,/E,/D,/ C,/_B,,/A,,/G,,/ F,,F, z D- | %129
 D/C/B,/A,/ G,/B,/A,/G,/ A,A,, z F- | F/E/D/C/ B,/D/C/B,/ CC, z E, | x x G,C B, z z2 | %132
 z2 z/ ^C/D/E/ F,B,_A,E, | A,A,, z/ _E/=E/^F/ G,E,A,A,, | F,D,G,G,, E,C,F,F,, | %135
 G,,G, G,G,, z G, G,G,, | z DCB, C/G,/E,/G,/ C,F, | G,A,B,C DCB,A, | G,A,B,C DCB,G, | %139
 C A,F,G, C,B,,/A,,/ G,,/F,,/E,,/D,,/ | C,, z z2 z/ C/B,/A,/ G,/F,/E,/D,/ | %141
 C,/C/B,/A,/ G,/F,/E,/D,/ C,B,,/A,,/ G,,/C,/_B,,/C,/ | F,, z z2 z4 | z8 | z8 | z8 | z8 | z8 | %148
 z4 z/ G/F/G/ E/D/C/_B,/ | A,F,/G,/ A,B,/C/ DE/C/ DB, | G,E,/F,/ G,A,/B,/ CD/B,/ CA, | %151
 F,D,/E,/ F,A, F,D,/E,/ F,B, | D/E/F/E/ D/F/C/F/ B,/C/D/C/ B,/D/G,/B,/ | C,A,F,G, C,D,E,C, | %154
 F,G,A,F, G,F,E,D, | E,C,G,G,, C,/_B,,/C,/A,,/ C,/G,,/C,/F,,/ | %156
 C,/E,,/C,/F,,/ C,/G,,/C,/A,,/ C,/_B,,/C,/A,,/ C,/G,,/C,/F,,/ | %157
 C,/E,,/C,/F,,/ C,/G,,/C,/E,,/ F,, z z/ D/E/F/ | G,E,A,A,, F,D,G,G,, | E,C,F,F,, G,,G, G,G,, | %160
 z G,G,G,, z D,C,B,, | C,/C,,/E,,/G,,/ C,/B,,/C,/C,,/ G,,A,,B,,C, | D,C,B,,A,, G,,A,,B,,C, | %163
 D, z z2 z/ G,/B,/D/ G/ z/ z | z2[I:staff -1] _E2- E[I:staff +1] z G,D, | [C,,C,E,G,]8 | z8 | %167
[M:6/8] z6 | z6 | z6 | z6 | E,>EF E/D/C/B,/C/A,/ | _A,2 =A, B,A,_A, | A,A,,E, A,G,F, | %174
 E,G,E, A,2 A,, | D,F,D, _A,B,A, | E,A,/4G,/4A,/-A,- A,D/C/D/F/ | B,/C/B,/A,/B,/_A,/ =A,/D,/E,E,, | %178
 A,,2 z4 | D,/F,/A,/D/E,/^C/ F,/A,/D/C/D/B,/ | G,2 z4 | C,>G,A, G,/F,/E,/D,/E,/4D,/4E,/4C,/4 | %182
 F,/4E,/4F,/- F,2- F,B,,G,, | C,E,C, F,A,F, | G,A,F, G,G,,G, | C,2 z z2 z | %186
 G,,>G,A, G,/F,/E,/D,/E,/C,/ | B,,2 C, D,C,B,, | C,C^C D=C_B, | A,2 z z2 z | z6 | %191
 z2 ^C, D,/A,,/D,/F,/E,/D,/ | E,/A,,/E,/G,/^F,/E,/ F,/D,/F,/A,/G,/F,/ | %193
 G,/A,/_B,/D/^C/=B,/ C/B,/C/E/D/C/ | DD,C, B,,E,E,, | A,,A,_A, =A,G,F, | E,2 z z2 z | %197
 B,,>B,C B,/A,/G,/^F,/G,/E,/ | _E,2 =E, ^F,E,_E, | E,E,,_E, =E,_E,C, | B,,2 z z2 z | z6 | %202
 z z _E, =E,/B,,/E,/G,/^F,/E,/ | ^F,/B,,/F,/A,/_A,/F,/ A,/E,/A,/B,/=A,/_A,/ | %204
 A,/F,/E,/D,/E,/A,/ B,,_E,B,, | E,,G,,E,, A,,C,A,, | B,,C,A,, B,,A,,B,, | %207
 E,,/G,,/B,,/E,/^F,,/_E,/ G,,/B,,/=E,/_E,/=E,/C,/ | A,,2 z4 | D,>A,_B, A,/G,/F,/E,/F,/D,/ | %210
 G,/4F,/4G,/ G,2- G,3- | G,/A,/G,/^F,/G,/C/ F,A,F, | D, G,3 C,/B,,/C,/E,/ | %213
 A,/B,/A,/G,/A,/^F,/ G,/C,/D,D,, | G,,2 z z2 D, | D/G,/D/F/E/D/ E/C/E/G/^F/E/ | %216
 ^F/D/F/A/G/F/ GG, z | z z ^C, D,/A,,/D,/F,/E,/D,/ | E,/B,,/E,/_A,/^F,/E,/ =A,/E,/A,/C/B,/A,/ | %219
 B,/^F,/B,/_E/^C/B,/ =EE, z | z2 z4 | z z2 A,,2 z | z z2 E,,>E,F, | %223
 E,/D,/C,/B,,/C,/A,,/ _A,,2 =A,, | B,,A,,_A,, =A,,A,E, | A,,G,,F,, E,,G,,E,, | A,,A,A,, D,F,D, | %227
 _A,B,A, E, =A,2- | A,D/^C/D/F/ B,/=C/B,/A,/B,/_A,/ | A,/D,/E,E,, !fermata!A,,3 | z6 |[M:4/4] z8 | %232
 z8 | z8 | z8 | z8 | z8 | z8 | z8 | z8 | z8 | z8 | z8 | z8 | z8 | z8 | z8 | %247
 z G,/A,/ B,G, CB, ED/C/ | D2 E/G/C/E/ D/C/B,/D/ C/E/A,/C/ | B,/A,/G,/A,/ B,/C/D E,G,A,C | %250
 D,^F,G,B, C,/B,/A,/G,/ D,/A,/G,/F,/ | G,2- G,/B,,/A,,/G,,/ A,,/G,/F,/E,/ F,/C,/B,,/A,,/ | %252
 B,,/F,/E,/D,/ C,/B,,/C,/D,/ E,/F,/G,/E,/ F,/G,/A,/B,/ | C/D/E/C/ F,D E,C D,B, | %254
 C,/F,/E,/D,/ C,/_B,,/A,,/G,,/ F,,/E,/D,/C,/ =B,,/A,,/G,,/F,,/ | %255
 E,,/D,/C,/B,,/ A,,/G,,/F,,/E,,/ D,,/C,/B,,/A,,/ G,,/F,,/E,,/D,,/ | %256
 C,,2 z/ A,,/C,/E,/ ^F,2- F,/G,,/B,,/D,/ | E,2- E,/^F,,/A,,/C,/ D,2- D,/G,,/B,,/D,/ | %258
 E,/C,/E,/G,/ C/G,/C/E/ G/F/E/D/ C2 | B,2 A,2 G,/D,/E,/^F,/ G,/A,/G,/F,/ | %260
 A,/G,/^F,/E,/ z/ G,/F,/E,/ G,/F,/E,/D,/ z/ =F,/E,/D,/ | E,C, D,2 G,,B,,E,G, | %262
 A,,C,F,A, B,,D,G,B, | C,2 z2 z/ C,,/D,,/E,,/ F,,/G,,/A,,/B,,/ | C,/D,/E,/C,/ F,2 E,2 D,2 | %265
 C,2 z/ D,/E,/C,/ F,/G,/F,/E,/ D,/C,/D,/B,,/ | E,/F,/E,/D,/ C,/B,,/A,,/G,,/ F,,F, G,G,, | %267
 C,B,,/A,,/ E,2 E,/D,/E,/^F,/ G,2- | G,G,, G, z G,, z G, z | G,, z z2 z4 | %270
 z/ C,/B,,/A,,/ G,,/^F,,/E,,/D,,/ C,,C, D,D,, | G,, z B,, z D, z F, z | A, z C, z E, z G, z | %273
 A, z B, z C z A, z | F, z D, z G, z G,, z | z C,/D,/ E,C, G,E, A,G,/F,/ | %276
 G,2 A,/C/F,/A,/ G,/F,/E,/G,/ F,/A,/D,/F,/ | E,/D,/C,/D,/ E,/F,/G, A,,C, D,F, | %278
 G,,B,, C,E, F,,/E,/D,/C,/ G,,/E,/D,/C,/ | %279
 A,,/E,/D,/C,/ E,,/E,/D,/C,/ F,,/E,/D,/C,/ G,,/E,/D,/C,/ | %280
 A,,/E,/D,/C,/ E,,/_B,,/A,,/G,,/ F,,/A,,/G,,/F,,/ G,,G,, | C,, z z2 z4 | z8 | z8 | z8 | z8 | z8 | %287
 z8 | z8 | z8 | z4 z/ G,,/A,,/B,,/ C,/B,,/A,,/G,,/ | D,2 z2 z/ A,,/B,,/C,/ D,/C,/B,,/A,,/ | %292
 E,2 z2 B,,2 z2 | z/ C,/D,/E,/ F,/E,/D,/C,/ G,/ G,,/A,,/B,,/ C,/B,,/A,,/G,,/ | %294
 D,/ D,,/E,,/^F,,/ G,,/F,,/E,,/D,,/ A,,/ A,/B,/C/ D/C/B,/A,/ | %295
 E/ E,/^F,/G,/ A,/G,/F,/E,/ B,A,_A,E, | A,4- A,2 G,/4F,/4G,/-G,- | %297
 G,2 F,2- F,/F,/E,/D,/ ^C,/D,/E,/C,/ | F,,2- F,,/F,,/G,,/A,,/ _B,,/A,,/G,,/F,,/ G,,/D,,/E,,/F,,/ | %299
 G,,A,,_B,,G,, G,,E,,A,,A,, | D,,2 z2 z4 | z2 z A,/G,/ ^F,A, D,F, | G,G,, z2 z4 | %303
 z2 z D/C/ B,D G,B, | CC, z2 z4 | z8 | z8 | z8 | z8 | z8 | z G,/A,/ B,G, DB, ED/C/ | %311
 D2 E/G/C/E/ D/C/B,/D/ C/E/A,/C/ | B,/A,/G,/A,/ B,/C/D E,G,A,C | %313
 D,^F,G,B, C,/B,/A,/G,/ D,/A,/G,/F,/ | B,,/A,/G,/^F,/ E,/D,/C,/B,,/ A,,/G,/F,/E,/ D,/C,/B,,/A,,/ | %315
 G,,/^F,/E,/D,/ C,/B,,/A,,/G,,/ ^F,,/E,/_E,/^C,/ B,,/A,,/G,,/F,,/ | E,, z z2 E,, z z2 | %317
 E,, z E, z E,, z E, z | E,, z z2 z4 | z8 | z E,,/^F,,/ G,,E,, B,,G,, C,B,,/A,,/ | %321
 B,,2 C,/E,/A,,/C,/ B,,/A,,/G,,/B,,/ A,,/C,/^F,,/A,,/ | G,,/^F,,/E,,/F,,/ G,,/A,,/B,, C,E,F,,A,, | %323
 B,,_E,E,,G,, A,,/G,/^F,/=E,/ B,,/G,/F,/E,/ | %324
 C,/G,/^F,/E,/ G,,/G,/F,/E,/ A,,/G,/F,/E,/ B,,/F,/E,/_E,/ | %325
 C,/E,/D,/C,/ G,,/D,/C,/B,,/ A,,/C,/B,,/A,,/ B,,B,, | E,, z z2 z/ E,/^F,/G,/ A,/G,/F,/E,/ | %327
 ^F,A, D,F, G,, z z2 | z8 | z/ z4 ^C,/_E,/=E,/ ^F,/E,/_E,/C,/ | _E,^F, B,,E, E,, z z2 | z8 | %332
 z z2 A,/B,/ C/E/A,/C/ D/F/A,/B,/ | C/E/A,/C/ D z C z B, z | A, z E2- E2 D2- | D2 C2 B,CDE | %336
 A, A,,/B,,/ C,A,, E,C, F,E,/D,/ | E,2 F,/A,/D,/F,/ E,/D,/C,/E,/ D,/F,/B,,/D,/ | %338
 C,/B,,/A,,/B,,/ C,/D,/E, F,,A,,B,,D, | E,,_A,,=A,,C, D,,/C,/B,,/A,,/ E,,/C,/B,,/A,,/ | %340
 F,,/C,/B,,/A,,/ C,,/C,/B,,/A,,/ D,,/C,/B,,/A,,/ E,,/B,,/A,,/_A,,/ | %341
 F,,/A,,/G,,/F,,/ C,,/G,,/F,,/E,,/ D,,/F,,/E,,/D,,/ E,,E, | A,,2 z2 z4 | [A,,D,]2 z2 z4 | %344
 D,2 z2 z4 | C,2 z2 z4 | F,,/ F,/G,/A,/ _B,/A,/G,/F,/ C/ C,/D,/E,/ F,/E,/D,/C,/ | %347
 G,/ G,,/A,,/_B,,/ C,/B,,/A,,/G,,/ D,/ D,,/E,,/F,,/ G,,/F,,/E,,/D,,/ | A,,A,/G,/ ^F,D, G,4- | %349
 G,2 F,4 _E,2- | E,/_E,/D,/C,/ =B,,/C,/D,/B,,/ _E,,2- E,,/E,,/F,,/G,,/ | %351
 _A,,/G,,/F,,/_E,,/ F,,/C,,/D,,/E,,/ F,,G,,_A,,G,, | F,,D,,G,,G,, C,,2 z2 | z8 | z8 | z8 | z8 | %357
 z8 | z8 | z z4 G,,/A,,/ B,,G,, | A,, B,, F,E,/D,/ E,/D,/C,/D,/ E,C, | %361
 G,E, CB,/A,/ B,/A,/G,/A,/ B,G, | DB, FE/D/ E/D/C/D/ CC | z8 | z z4 C,,/D,,/ E,,C,, | %365
 G,,E,, A,,G,,/F,,/ G,,2 A,,/C,/F,,/A,,/ | %366
 G,,/F,,/E,,/G,,/ F,,/A,,/D,,/F,,/ E,,/D,,/C,,/D,,/ E,,/F,,/G,, | A,,C,D,,F,, G,,B,,C,,E,, | %368
 F,,/E,/D,/C,/ G,,/E,/D,/C,/ A,,/E,/D,/C,/ E,,/E,/D,/C,/ | %369
 F,,/E,/D,/C,/ G,,/D,/C,/B,,/ A,,/C,/B,,/A,,/ E,,/_B,,/A,,/G,,/ | %370
 F,,/A,,/G,,/F,,/ G,,G,, C, z z2 |] %371
V:9
 C,2 A,,2 E,, z z2 | x8 | x4 x2 x E, | F,D,E,C, G, x x2 | x8 | x8 | x8 | x8 | x8 | x8 | x8 | x8 | %12
 x8 | x8 | x8 | x8 | x8 | x8 | x8 | x8 | x8 | x8 | x8 | x8 | x8 | x8 | x8 | x8 | x2 E,C, G,, x3 | %29
 x8 | x2 F,D, A,, x3 | x2 B,A, G, z x2 | x8 | x8 | x8 | x8 | x4 x2 [E,G,]2 | [B,,D,] x x2 x4 | x8 | %39
 z2 z B,, C,A,,B,,G,, | A, z x2 x4 | x8 | G,E,C,D, G,^F,/E,/ x2 | x8 | x8 | %45
[K:treble] x4[K:bass] x4 | x8 | x8 | x8 | x8 | x8 | x8 | x8 | x8 | x8 | x8 | x8 | x8 | x8 | x8 | %60
 C,A,,E,E, A,, z z2 | A,,A, _A,E, G,, x3 | D,D ^CA, C, x3 | x8 | z2 z G,, C,/D,/E,/D,/ x2 | %65
 x4 F,,D,E,C, | G, z z2 x4 | x8 | x8 | x8 | x8 | x3/2[K:treble] x13/2 | %72
 x3[K:bass] E, G,^F, G,E,/ x/ | x8 | x8 | x8 | x8 | x8 | x8 | x8 | x8 | x8 | x8 | x8 | x8 | x8 | %86
 x2 [A,,C,]F,, C,, z z2 | x8 | x2 B,,G,, D,, z z2 | x8 | x8 | x8 | x8 | x8 | x8 | C2 A,2 x4 | x8 | %97
 x7 E, | F,D,E,C, G,G,, x2 | x8 | x8 | x8 | x8 | x8 | z A,, D, z x4 | x8 | x8 | x8 | %108
 _B,,A,,_B,,G,, D, z A,G, | x8 | x8 | x8 | x8 | x13/2[K:treble] x3/2 | x8 |[K:bass] x8 | x8 | %117
 x4[K:treble] x4 | x8 | x8 | x9/2[K:bass] x7/2 | x8 | x8 | x8 | x2 ED C x2 x | x8 | x8 | x8 | x8 | %129
 x8 | x8 | F,D, E,C, G, x3 | x8 | x8 | x8 | x8 | x8 | x8 | x8 | x8 | x8 | x8 | x8 | x8 | x8 | x8 | %146
 x8 | x8 | x8 | x8 | x8 | x8 | x8 | x8 | x8 | x8 | x8 | x8 | x8 | x8 | x8 | x8 | x8 | x8 | %164
 z2 ^F,,2 G,,4 | x8 | x8 |[M:6/8] x6 | x6 | x6 | x6 | x6 | x6 | x6 | x6 | x6 | x6 | x6 | x6 | x6 | %180
 x6 | x6 | x6 | x6 | x6 | x6 | x6 | x6 | x6 | x6 | x6 | x6 | x6 | x6 | x6 | x6 | x6 | x6 | x6 | %199
 x6 | x6 | x6 | x6 | x6 | x6 | x6 | x6 | x6 | x6 | x6 | x6 | x6 | x6 | x6 | x6 | x6 | x6 | x6 | %218
 x6 | x6 | x6 | x6 | x6 | x6 | x6 | x6 | x6 | x6 | x6 | x6 | x6 |[M:4/4] x8 | x8 | x8 | x8 | x8 | %236
 x8 | x8 | x8 | x8 | x8 | x8 | x8 | x8 | x8 | x8 | x8 | x8 | x8 | x8 | x8 | x8 | x8 | x8 | x8 | %255
 x8 | x8 | x8 | x8 | x8 | x8 | x8 | x8 | x8 | x8 | x8 | x8 | x8 | x8 | x8 | x8 | x8 | x8 | x8 | %274
 x8 | x8 | x8 | x8 | x8 | x8 | x8 | x8 | x8 | x8 | x8 | x8 | x8 | x8 | x8 | x8 | x8 | x8 | x8 | %293
 x8 | x8 | x8 | x8 | x8 | x8 | x8 | x8 | x8 | x8 | x8 | x8 | x8 | x8 | x8 | x8 | x8 | x8 | x8 | %312
 x8 | x8 | x8 | x8 | x8 | x8 | x8 | x8 | x8 | x8 | x8 | x8 | x8 | x8 | x8 | x8 | x8 | x8 | x8 | %331
 x8 | x8 | x8 | x8 | x8 | x8 | x8 | x8 | x8 | x8 | x8 | x8 | D,,2 z2 z4 | G,,2 z2 z4 | C,,2 z2 z4 | %346
 x8 | x8 | x8 | x8 | x8 | x8 | x8 | x8 | x8 | x8 | x8 | x8 | x8 | x8 | x8 | x8 | x8 | x8 | x8 | %365
 x8 | x8 | x8 | x8 | x8 | x4 C,, x3 |] %371
V:10
 e>f g/4f/4g/4f/4g/4f/4e/4f/4 g z z2 | z8 | z4 z2 z G | AB c/d/e/c/ d/c/B/A/ G z | z gg z z fB z | %5
 z aa z z gg z | z ff z z e ed/c/ | B4 c4 | d4 e4 | f8- | f4- f3 g | ed/c/ e/d/c/B/ c z z2 | z8 | %13
 z8 | z8 | z8 | z8 | z8 | z8 | z8 | G-G/A/ B/4A/4B/4A/4B/4A/4G/4A/4 B z z2 | z8 | z8 | z8 | z8 | %25
 z8 | z8 | g>a b/4a/4b/4a/4b/4a/4g/4a/4 b z z2 | z8 | z8 | z8 | z4 z gg z | z fB z2 aa z | %33
 z g^c z2 bb z | z aa z2 g g^f/e/ | ^f2 ^F2 G4 | A4 B>c d/4c/4d/4c/4d/4c/4B/4c/4 | d z z2 z4 | z8 | %39
 z2 z D E^F G/A/B/G/ | c8- | c4- c3 d | BA/G/ B/A/G/^F/ G z z2 | z4 z a/4g/4^f/ g z | %44
 z4 z ^f/4e/4_e/ =e z | z4 z b/4a/4_a/ =a z | z4 z g/4f/4e/ f z | z8 | z8 | z8 | z8 | z8 | z8 | %53
 A>B c/4B/4c/4B/4c/4B/4A/4B/4 c z z2 | z8 | z8 | z8 | z8 | z8 | z8 | %60
 g>b c'/4b/4c'/4b/4c'/4b/4a/4b/4 c' z z2 | z8 | z8 | z8 | z g/4f/4e/ f z z4 | %65
 z c/4_B/4A/ B G A=B c/d/e/c/ | d/c/B/A/ G z z4 | z aa z2 aa z | z gg z2 gg z | z ff z2 ff z | %70
 z ee z z4 | z8 | z z2 B ^c_e =e/^f/g/e/ | a8- | a4- a3 g/^f/ | g z c' z c' z b z | %76
 b z a z a z z2 | g z z2 e z z2 | _e z z2 ^f z z2 | a z z2 c' z z b | g z ^f z e z z B | %81
 G z ^F z E z z2 | d8- | d4- d3 c/B/ | ce a2- a_ec'b | a/g/^f/e/ g/f/e/_e/ =e2 z2 | z8 | z8 | z8 | %89
 z8 | z4 z gg z | z fB z2 aa z | z gg z2 ff z | z e ed/c/ B4 | c4 d4 | %95
 e>f g/4f/4g/4f/4g/4f/4e/4f/4 g z z2 | z8 | z4 z2 z G | AB c/d/e/c/ d/c/B/A/ G z | z G,G,B, B,DDG | %100
 GBB d e z z2 | z2 z d eBcG | GDE_A =A z z2 | z A,A,^C CEEA | A^cd z z4 | z EF^C D^F-FA- | %106
 Ac_Ba _b^fgd- | dd-dd- d^FG D | E^F G/A/_B/G/ c4- | c8- | c3 _B/A/ B z _e z | _e z d z d z c z | %112
 c z z2 _B z z2 | G z z2 ^F z z2 | A z z2 c z z2 | _e z2 d _b z a z | g z2 d _B z A z | %117
 G z z2 f4- | f8- | f3 _e/d/ e G c2- | c^fa d c/_B/A/G/ B/A/G/^F/ | G z z2 z4 | z8 | z8 | z8 | %125
 z aa z2 aa z | z gg z2 gg z | z ff z2 ff z | z ee z2 dd z | z de z2 ef z | z fg z2 gec | %131
 AB c/d/e/c/ d/c/B/A/ G z | z gg z z fB z | z aa z z gg z | z ff z z e ed/c/ | d4 c4 | d4 e4 | %137
 f8- | f4- f3 g | ed/c/ e/d/c/B/ c z z2 | z8 | z8 | z8 | z8 | z8 | z8 | z8 | z8 | %148
 C>D E/4D/4E/4D/4E/4D/4C/4D/4 E z z2 | z8 | z8 | z4 B z z2 | d z z2 f z z g | ecdB c z z _B | %154
 A z z d G z z G | gf/e/ f/e/d/c/ _b4- | b8- | b3 a/g/ a aa z | z gg z z ff z | z e ed/c/ B4 | %160
 c4 d4 | e2- e/c/G/E/ F4- | F8- | F z z2 z4 | z2 c4 B2 | c8 | z8 |[M:6/8] z6 | z6 | z6 | z6 | z6 | %172
 z6 | z6 | z6 | z6 | z6 | z6 | z6 | z6 | z6 | z6 | z6 | z6 | z6 | z6 | z6 | z6 | z6 | z6 | z6 | %191
 z6 | z6 | z6 | z6 | z6 | z6 | z6 | z6 | z6 | z6 | z6 | z6 | z6 | z6 | z6 | z6 | z6 | z6 | z6 | %210
 z6 | z6 | z6 | z6 | z6 | z6 | z6 | z6 | z6 | z6 | z6 | z6 | z6 | z6 | z6 | z6 | z6 | z6 | z6 | %229
 z6 | z6 |[M:4/4] z8 | z8 | z8 | z8 | z8 | z8 | z8 | z8 | z8 | z8 | z8 | z8 | z8 | z8 | z8 | z8 | %247
 z8 | z8 | z8 | z8 | z8 | z8 | z8 | z8 | z8 | z8 | z8 | z8 | z8 | z8 | z8 | z8 | %263
 z c/d/ ec ge ag/f/ | g2 a/c'/f/a/ g/f/e/g/ f/a/d/f/ | e/d/c/d/ e/f/g Acdf | %266
 GBce F/e/d/c/ G/d/c/B/ | c/d/e/^f/ g/a/b/g/ e/f/g/a/ b/g/c'- | %268
 c'/a/b c'/b/a/c'/ b/a/g/b/ a/c'/^f/a/ | g z z/ c'/b/a/ g/^f/e/d/ c/b/a/g/ | %270
 ^f/e/d/c/ B/a/g/f/ e/d/c/B/ A/c/B/A/ | B/G/A/B/ c/B/A/G/ Ad z d | c/A/B/c/ d/c/B/A/ Be z e | %273
 f/4e/4f/4e/4d z d e/4d/4e/4d/4c z c | c/A/B/c/ d/c/B/A/ B/d/e/f/ g/f/e/d/ | ec z e dg z/ f/g/a/ | %276
 d g2 f- f/d/ e2 d- | de/f/ g/a/b/g/ c'2- c'/c'/b/a/ | b2 z _b a z g z | f z e z d z e z | %280
 f z g z a z gf | e z z2 z4 | z8 | z8 | z8 | z8 | z8 | z8 | z8 | z8 | z8 | z8 | z8 | z8 | z8 | z8 | %296
 z8 | z8 | z8 | z8 | z8 | z8 | z8 | z8 | z8 | z8 | z8 | z8 | z8 | z8 | z8 | z8 | z8 | z8 | z8 | %315
 z8 | e8- | e/^f/ g2 f2 e2 _e | e z z/ ^f/e/_e/ f/=e/_e/^c/ z/ =e/_e/c/ | %319
 e/_e/^c/B/ z/ d/=c/B/ c/B/A/G/ ^F/A/G/F/ | GE z B/^c/ _e/=e/^f/g/ a2- | a/a/g/^f/ ec' _eb ca | %322
 B2 z b- b/b/a/g/ a2- | a/a/g/^f/ ge z f z g | z a z b z c' z b | z a z g z ^fB_e | e z z2 z4 | %327
 z8 | z8 | z8 | z8 | z8 | a8- | a/b/c'- c'b- ba- a_a | a z/ z b/a/_a/ b/=a/_a/^f/ z/ =a/_a/f/ | %335
 a/_a/^f/e/ z/ g/=f/e/ f/e/d/c/ B/d/c/B/ | cA z c Be z/ d/e/f/ | B e2 d- d/B/ c2 B- | %338
 Bc/d/ e/^f/_a/e/ =a2- a/c'/b/a/ | _ae z =a f z e z | d z c z B z c z | d z e z f z ed | %342
 c z z2 z2 z ^c | d/e/f/g/ a z z2 z ^F | G/A/B/c/ d z4 B | c/d/e/f/ g z4 E | F z z2 z4 | z8 | z8 | %349
 z8 | z8 | z8 | z8 | z8 | z8 | z8 | z8 | z8 | z8 | z4 g z z2 | z4 g z z2 | z4 g z z2 | z4 g z z2 | %363
 z4 g z z2 | z4 ec z G/A/ | B/c/d/e/ f2- f/f/e/d/ ca | BgAf G2 z g- | g/g/f/e/ f2- f/f/e/d/ e2- | %368
 e/c/d z e z f z g | z a z g z f z e | z dGB c z z2 |] %371
V:11
 G,2 A,2 G, z z2 | z8 | z4 z2 z C, | C,D,G,,G, G,D,B,, z | z _B,A, z z D,E, z | %5
 z A,,^F, z z E,E, z | z D,D, z z C,C,F, | D,4 C,2 E,2 | D,4 C,2 C2 | B,8- | B,4- B,3 G, | %11
 G,A,A,G, G, z z2 | z8 | z8 | z8 | z8 | z8 | z8 | z8 | z8 | B,,2 D,2 D, z z2 | z8 | z8 | z8 | z8 | %25
 z8 | z8 | B,, G,2 ^F, G, z z2 | z8 | z8 | z8 | z4 z _B,A, z | z D,E, z2 A,^F, z | %33
 z E,_G, z2 F,E, z | z E,D, z2 D,E,A,, | A,,4 G,,2 B,,2 | A,,4 G,,2 G,,2 | D, z z2 z4 | z8 | %39
 z2 z G,, G,,A,,D,,D, | ^F,8- | F,4- F,3 D, | D,E,E,D, D, z z2 | z4 z ^F,B, z | z4 z _E,G, z | %45
 z4 z _A,C z | z4 z ^C,D, z | z8 | z8 | z8 | z8 | z8 | z8 | E,, A,,2 _A,, =A,, z z2 | z8 | z8 | %56
 z8 | z8 | z8 | z8 | E, A,2 _A, =A, z z2 | z8 | z8 | z8 | z G,G,, z z4 | z C,C,, C, C,D,G,,G, | %66
 G,D,B,, z z4 | z CC z2 DD z | z B,B, z2 CC z | z A,A, z2 B,B, z | z G,G, z z4 | z8 | %72
 z z2 E, E,^F,B,,B, | B,2 ^F,4- F,2- | F,4- F,3 B, | B, z A, z A, z G, z | G, z ^F, z F, z z2 | %77
 B, z z2 G, z z2 | ^F, z z2 A, z z2 | C z z2 ^F, z z B, | B, z B, z B, z z _E, | %81
 B,, z C, z B,, z z2 | B,,8- | B,,4- B,,3 E, | A,, z z ^F, F, z z B, | E,B,,B,,^F, G,2 z2 | z8 | %87
 z8 | z8 | z8 | z4 z _B,A, z | z D,E, z2 A,^F, z | z E,^C, z2 D,B,, z | z C,C,F, D,4 | %94
 C,2 E,2 D,4 | C,2 C,2 C, z z2 | z8 | z4 z2 z C, | C,D,G,,G, G,D,B,, z | z4 z G,,G,,B,, | %100
 B,,D,D, G, G, z z D | EB,CG, C,D,E,B,, | G,,G,,G,,B,, C, z z2 | z4 z A,,A,,^C, | %104
 ^C, E,F, z z E,F,C, | D,A,,-A,,E,, ^F,,A,,-A,,D,- | D,^F,D, z4 A,, | %107
 _B,,^F,,G,,A,, B,,A,,B,, G,, | G,,A,,D,,G,, A,,4- | A,,8- | A,,3 D, D, z C, z | %111
 C, z _B,, z B,, z A,, z | A,, z z2 D, z z2 | _B,, z z2 A,, z z2 | C, z z2 _E, z z2 | %115
 A,, z2 D, D z C z | D z2 ^F, D, z C, z | _B,, z z2 D,4- | D,8- | D,3 G, C, z2 _E, | %120
 D, z z D, G,,D,,D,,A,, | B,, z z2 z4 | z8 | z8 | z8 | z CC z2 DD z | z B,B, z2 CC z | %127
 z A,A, z2 B,B, z | z G,G, z2 A,A, z | z G,G, z2 E,A, z | z A,G, z2 CG,C, | C,D,G,,G, G,D,B,, z | %132
 z _B,A, z z D,E, z | z D,C, z z B,,B,, z | z D,D, z z C,C,F, | D,4 C,2 E,2 | D,4 C,2 C2 | B,8- | %138
 B,4- B,3 G, | G,A,A,G, G, z z2 | z8 | z8 | z8 | z8 | z8 | z8 | z8 | z8 | E,,2 G,,2 G,, z z2 | z8 | %150
 z8 | z4 F, z z2 | D, z z2 B,, z z G,, | G,A,D,F, E, z z C, | C, z z F, B,, z z D, | %155
 C,G,G,D, E,4- | E,8- | E,3 E, F, F,F, z | z G,E, z z F,D, z | z E,C,A,, G,,4 | G,4 B,,4 | %161
 G,,2- G,,/G,,/E,,/C,,/ B,,4- | B,,8- | B,, z z2 z4 | z2 A,,C, _E,F,G,D, | E,8 | z8 |[M:6/8] z6 | %168
 z6 | z6 | z6 | z6 | z6 | z6 | z6 | z6 | z6 | z6 | z6 | z6 | z6 | z6 | z6 | z6 | z6 | z6 | z6 | %187
 z6 | z6 | z6 | z6 | z6 | z6 | z6 | z6 | z6 | z6 | z6 | z6 | z6 | z6 | z6 | z6 | z6 | z6 | z6 | %206
 z6 | z6 | z6 | z6 | z6 | z6 | z6 | z6 | z6 | z6 | z6 | z6 | z6 | z6 | z6 | z6 | z6 | z6 | z6 | %225
 z6 | z6 | z6 | z6 | z6 | z6 |[M:4/4] z8 | z8 | z8 | z8 | z8 | z8 | z8 | z8 | z8 | z8 | z8 | z8 | %243
 z8 | z8 | z8 | z8 | z8 | z8 | z8 | z8 | z8 | z8 | z8 | z8 | z8 | z8 | z8 | z8 | z8 | z8 | z8 | %262
 z8 | z8 | z8 | z8 | z8 | z8 | z8 | z8 | z8 | z8 | z8 | z8 | z8 | %275
 z E,/F,/ G,/A,/B,/C/ DG, CB,/A,/ | B, E2 D2 C2 B,- | B,CG,F, E, A,2 D,- | D, G,2 C, C z C z | %279
 F, z G, z A, z G, z | F, z C z C z B,B, | G, z z2 z4 | z8 | z8 | z8 | z8 | z8 | z8 | z8 | z8 | %290
 z8 | z8 | z8 | z8 | z8 | z8 | z8 | z8 | z8 | z8 | z8 | z8 | z8 | z8 | z8 | z8 | z8 | z8 | z8 | %309
 z8 | z8 | z8 | z8 | z8 | z8 | z8 | z2 z E,/^F,/ G,/B,/E,/G,/ A,/C/E,/F,/ | %317
 G,/B,/E,/G,/ A, z G, z ^F, z | E, z B,4 A,2- | A,2 G,2 ^F,G,A,B, | %320
 E,,/^F,,/G,,/A,,/ B,,/^C,/_E,/=E,/ ^F,B,,E,E, | _E,G,- G,^F,- F,=E,- E,_E,- | %322
 E,=E, B,,A,, G,, C2 ^F,- | F,B,- B,B, z C z B, | z A, z E z E z E | z A, z B, z A,_E,^F, | %326
 G, z z2 z4 | z8 | z8 | z8 | z8 | z8 | z2 z A,,/B,,/ C,/E,/A,,/C,/ D,/F,/A,,/B,,/ | %333
 C,/E,/A,,/C,/ D, z C, z B,, z | A,, z E,4 D,2- | D,2 C,2 B,,C,D,E, | %336
 A,,/B,,/C,/D,/ E,/^F,/_A,/=A,/ B,E,A,A, | _A, C2 B,2 =A,2 _A,- | A,=A,E,D, C, F,2 B,,- | %339
 B,, E,2 A,, A, z A, z | D, z E, z F, z E, z | D, z A, z A, z _A,A, | E, z z2 z2 z G,, | %343
 F, z z2 z2 z C, | B,, z z2 z2 z F, | E, z z2 z2 z _B,, | A,, z z2 z4 | z8 | z8 | z8 | z8 | z8 | %352
 z8 | z8 | z8 | z8 | z8 | z8 | z8 | z4 B, z z2 | z4 C z z2 | z4 B, z z2 | z4 C z z2 | z4 B, z z2 | %364
 z z4 E,/F,/ G,/A,/B,/C/ | DG, CB,/A,/ B, D,2 D,- | D, C,2 B,,2 C,G,,F,, | E,, A,,2 D,2 G,,2 C,- | %368
 C,A, z G, z F, z C | z C z C z F, z G, | z DB,D E z z2 |] %371
V:12
 c2 c2 c z z2 | z8 | z4 z2 z G | GFGc BGD z | z ee z z dd z | z cB z z _BA z | z AG z z GAA | G8 | %8
 B4 G4 | d8- | d4- d3 d | cEFD E z z2 | z8 | z8 | z8 | z8 | z8 | z8 | z8 | z8 | D G2 ^F G z z2 | %21
 z8 | z8 | z8 | z8 | z8 | z8 | d2 d2 d z z2 | z8 | z8 | z8 | z4 z ee z | z dd z2 cB z | %33
 z ee z2 dd z | z cc z2 B BA/G/ | d2 D6 | ^F4 D2 G2 | G z z2 z4 | z8 | z2 z D DCDG | A8- | %41
 A4- A3 A | GB,CA, B, z z2 | z4 z dd z | z4 z BB z | z4 z ee z | z4 z AA z | z8 | z8 | z8 | z8 | %51
 z8 | z8 | C2 E2 E z z2 | z8 | z8 | z8 | z8 | z8 | z8 | c2 e2 e z z2 | z8 | z8 | z8 | %64
 z e/4d/4c/ d z z4 | z A/4G/4F/ G G GFGc | BGD z z4 | z ff z2 ff z | z ee z2 ee z | z dd z2 dd z | %70
 z cc z z4 | z8 | z z2 B BABe | _e8- | e4- e3 =e/_e/ | e z e z _g z f z | e z e z _e z z2 | %77
 e z z2 B z z2 | A z z2 c z z2 | ^f z z2 a z z f | e z _e z B z z ^F | E z _E z G, z z2 | _A8- | %83
 A4- A3 E | E z z c B z z B | BBBB B2 z2 | z8 | z8 | z8 | z8 | z4 z ee z | z dd z2 cB z | %92
 z _BA z2 AG z | z GAA G4 | G4 B4 | G2 A2 c z z2 | z8 | z4 z2 z G | GFGc BGD z | z2 z G, G,B,B,D | %100
 DGG B c z z2 | z deB GGGD | EB,CE E z z2 | z2 z A, A,^CCE | E AA z z2 z E | F^CDA, A,D-D^F- | %106
 FAG z2 A_B^F | GA_B^F GD-D D | CCDD ^F4- | F8- | F3 G/^F/ G z G z | A z _A z G z G z | %112
 ^F z z2 G z z2 | D z z2 C z z2 | _E z z2 A z z2 | c z2 ^f g z f z | g z2 A G z ^F z | D z z2 B4- | %118
 B8- | B3 G G z2 A | A z z D DDDD | D z z2 z4 | z8 | z8 | z8 | z ff z2 ff z | z ee z2 ee z | %127
 z dd z2 dd z | z cc z2 cc z | z BB z2 cc z | z dd z2 ecG | GFGc BGD z | z ee z z dd z | %133
 z cB z z _BA z | z AG z z GAA | G8 | B4 G4 | d8- | d4- d3 d | cEFD E z z2 | z8 | z8 | z8 | z8 | %144
 z8 | z8 | z8 | z8 | G, C2 B, C z z2 | z8 | z8 | z4 G z z2 | G z z2 d z z d | cEAG G z z G | %154
 A z z A D z z B | cccB c4- | c8- | c3 c c cd z | z B^c z z AB z | z GAF D4 | E4 G4 | %161
 G2- G/E/C/G,/ D4- | D8- | D z z2 z4 | z2 A2 G4 | G8 | z8 |[M:6/8] z6 | z6 | z6 | z6 | z6 | z6 | %173
 z6 | z6 | z6 | z6 | z6 | z6 | z6 | z6 | z6 | z6 | z6 | z6 | z6 | z6 | z6 | z6 | z6 | z6 | z6 | %192
 z6 | z6 | z6 | z6 | z6 | z6 | z6 | z6 | z6 | z6 | z6 | z6 | z6 | z6 | z6 | z6 | z6 | z6 | z6 | %211
 z6 | z6 | z6 | z6 | z6 | z6 | z6 | z6 | z6 | z6 | z6 | z6 | z6 | z6 | z6 | z6 | z6 | z6 | z6 | %230
 z6 |[M:4/4] z8 | z8 | z8 | z8 | z8 | z8 | z8 | z8 | z8 | z8 | z8 | z8 | z8 | z8 | z8 | z8 | z8 | %248
 z8 | z8 | z8 | z8 | z8 | z8 | z8 | z8 | z8 | z8 | z8 | z8 | z8 | z8 | z8 | z8 | z8 | z8 | z8 | %267
 z G/A/ BG cB ed/c/ | d2 e/g/c/e/ d/c/B/d/ c/e/A/c/ | B/A/G/A/ B/c/d EGAc | %270
 D^FGB C/B/A/G/ D/A/G/F/ | G z z2 z/ D/E/F/ G/F/E/D/ | EA z E G/E/F/G/ A/G/F/E/ | %273
 F/D/E/F/ G/F/E/D/ E/C/D/E/ F/E/D/C/ | D/C/D/E/ F2- F/B,/C/D/ E/D/C/B,/ | CG, z G/A/ B/c/d/e/ f2- | %276
 f/f/e/d/ ca BgAf | G2 z g- g/g/f/e/ f2- | f/f/e/d/ eg f z e z | c z c z c z c z | c z e z d z dd | %281
 c z z2 z4 | z8 | z8 | z8 | z8 | z8 | z8 | z8 | z8 | z8 | z8 | z8 | z8 | z8 | z8 | z8 | z8 | z8 | %299
 z8 | z8 | z8 | z8 | z8 | z8 | z8 | z8 | z8 | z8 | z8 | z8 | z8 | z8 | z8 | z8 | z8 | %316
 z E/^F/ GE BG cB/A/ | B2 c/e/A/c/ B/A/G/B/ A/c/^F/A/ | G/^F/E/F/ G/A/B ^CEFA | %319
 B,_E=EG A,/G/^F/E/ _E/F/=E/_E/ | EB, z G ^FB z/ A/B/c/ | ^FB- BA- A/F/G- GF- | %322
 FG/A/ B/^c/_e/B/ =e2- e/g/^f/e/ | _eB z =e z e z e | z e z g z ^f z g | z e z e z c^FB | %326
 B z z2 z4 | z8 | z8 | z8 | z8 | z8 | z A/B/ cA ec fe/d/ | %333
 e-e/-e/4 z/4 f/a/d/f/ e/d/c/e/ d/f/B/d/ | c/B/A/B/ c/d/e ^FABd | E_A=Ac D/c/B/A/ _A/B/=A/_A/ | %336
 AE z E/^F/ _A/=A/B/c/ d2- | d/d/c/B/ Af _Ae=Fd | E2 z e- e/e/d/c/ d2- | d/d/c/B/ ce d z c z | %340
 A z A z A z A z | A z c z B z BB | A z z2 z2 z A | A z z2 z2 z D | D z z2 z2 z G | G z z2 z2 z C | %346
 C z z2 z4 | z8 | z8 | z8 | z8 | z8 | z8 | z8 | z8 | z8 | z8 | z8 | z8 | z4 d z z2 | z4 e z z2 | %361
 z4 d z z2 | z4 e z z2 | z4 d z z2 | z4 cG z e | dg z/ f/g/a/ d G2 F- | F/D/E- ED- DE/F/ G/A/B/G/ | %367
 c2- c/c/B/A/ BG z _B | Ac z c z c z e | z d z e z c z c | z ADG G z z2 |] %371
V:13
 C2 A,2 E, z z2 | z8 | z4 z2 z E, | F,D,E,C, G,G,, z2 | z D,^C, z z D,_A,, z | %5
 z A,_E, z z D,^C, z | z C,B,, z z C,F,F,, | G,,8- | G,,8- | G,,8- | G,,4- G,,3 B,, | %11
 C,A,,F,,G,, C,, z z2 | z8 | z8 | z8 | z8 | z8 | z8 | z8 | z8 | G,2 D,2 G,, z z2 | z8 | z8 | z8 | %24
 z8 | z8 | z8 | G,2 D,2 G,, z z2 | z8 | z8 | z8 | z4 z E,^C, z | z D,_A,, z2 A,_E, z | %33
 z E,_B,, z2 A,,_A,, z | z G,,^F,, z2 G,,C,C,, | D,,8- | D,,4 G,,2 E,2 | B,, z z2 z4 | z8 | %39
 z2 z B,, C,A,,B,,G,, | D,8- | D,4- D,3 ^F, | G,E,C,D, G,, z z2 | z4 z D,G,, z | z4 z B,,E,, z | %45
 z4 z E,A,, z | z4 z A,,D,, z | z8 | z8 | z8 | z8 | z8 | z8 | A,,2 E,,2 A,, z z2 | z8 | z8 | z8 | %57
 z8 | z8 | z8 | A,2 E,2 A,, z z2 | z8 | z8 | z8 | z8 | z2 z E, F,D,E,C, | G,G,, z2 z4 | %67
 z F,F,, z2 B,B,, z | z E,E,, z2 A,A,, z | z D,D,, z2 G,G,, z | z C,C,, z z4 | z8 | %72
 z z2 G,, A,,^F,,G,,E,, | B,,8- | B,,4- B,,3 B, | E, z A,, z D, z G,, z | C, z ^F,, z B,, z z2 | %77
 E,, z z2 G,, z z2 | C, z z2 A,, z z2 | ^F,, z z2 _E,, z z _E, | E, z ^F, z G, z z B, | %81
 E, z E, z E, z z2 | E,,8- | E,,4- E,,3 _A,, | A,, z z A, _E, z z _E | EG,/A,/ B,B,, E,,2 z2 | z8 | %87
 z8 | z8 | z8 | z4 z E,^C, z | z D,_A,, z2 A,_E, z | z E,A, z2 D,G, z | z C,F,F,, G,,4- | G,,8 | %95
 C,2 A,,2 E,, z z2 | z8 | z4 z2 z E, | F,D,E,C, G,G,, z2 | z8 | z2 z G,, C,C,, z2 | z8 | %102
 z z2 E, A,A,, z2 | z8 | z A,,D, z z4 | z8 | z D,,G,, z z4 | z4 z2 z _B,, | _B,,A,,B,,G,, D,,4- | %109
 D,,8- | D,,3 D, G, z C, z | F, z _B,, z _E, z A,, z | D, z z2 G,, z z2 | _B,, z z2 _E, z z2 | %114
 C, z z2 A,, z z2 | ^F,, z2 D, G, z A, z | _B, z2 D G, z G, z | G, z z2 G,,4- | G,,8- | %119
 G,,3 B,, C, z2 C, | ^F,, z z ^F, G,_B,,/C,/ D,D,, | G,, z z2 z4 | z8 | z8 | z8 | %125
 z F,F,, z2 B,B,, z | z E,E,, z2 A,A,, z | z D,D,, z2 G,G,, z | z C,C,, z2 F,F,, z | %129
 z G,G,, z2 A,A,, z | z B,B,, z2 CC,E, | F,D,E,C, G,G,, z2 | z E,^C, z z D,_A,, z | %133
 z A,_E, z z D,^C, z | z C,B,, z z C,F,F,, | G,,8- | G,,8- | G,,8- | G,,4- G,,3 B,, | %139
 C,A,,F,,G,, C,, z z2 | z8 | z8 | z8 | z8 | z8 | z8 | z8 | z8 | C,2 G,,2 C,, z z2 | z8 | z8 | %151
 z4 D, z z2 | B,, z z2 G,, z z B,, | C,A,,F,,G,, C,, z z E,, | F,, z z F,, F, z z F, | %155
 E,C,G,G,, C,,4- | C,,8- | C,,3 C, F,, F,B,, z | z E,A,, z z D,G,, z | z C,F,F,, G,,4- | G,,8 | %161
 C,,/C,/E,/G,/ CC,/E,/ G,4- | G,8- | G, z z2 z4 | z2 ^F,2 G,2 G,,2 | C,8 | z8 |[M:6/8] z6 | z6 | %169
 z6 | z6 | z6 | z6 | z6 | z6 | z6 | z6 | z6 | z6 | z6 | z6 | z6 | z6 | z6 | z6 | z6 | z6 | z6 | %188
 z6 | z6 | z6 | z6 | z6 | z6 | z6 | z6 | z6 | z6 | z6 | z6 | z6 | z6 | z6 | z6 | z6 | z6 | z6 | %207
 z6 | z6 | z6 | z6 | z6 | z6 | z6 | z6 | z6 | z6 | z6 | z6 | z6 | z6 | z6 | z6 | z6 | z6 | z6 | %226
 z6 | z6 | z6 | z6 | z6 |[M:4/4] z8 | z8 | z8 | z8 | z8 | z8 | z8 | z8 | z8 | z8 | z8 | z8 | z8 | %244
 z8 | z8 | z8 | z8 | z8 | z8 | z8 | z8 | z8 | z8 | z8 | z8 | z8 | z8 | z8 | z8 | z8 | z8 | z8 | %263
 z8 | z8 | z8 | z8 | z8 | z8 | z8 | z8 | z8 | z8 | z8 | z8 | z C,/D,/ E,C, G,E, A,G,/F,/ | %276
 G,2 A,/C/F,/A,/ G,/F,/E,/G,/ F,/A,/D,/F,/ | E,/D,/C,/D,/ E,/F,/G, A,,C,D,F, | %278
 G,,B,,C,E, F,, z G,, z | A,, z E,, z F,, z G,, z | A,, z E,, z F,, z G,,/F,,/G,, | C,, z z2 z4 | %282
 z8 | z8 | z8 | z8 | z8 | z8 | z8 | z8 | z8 | z8 | z8 | z8 | z8 | z8 | z8 | z8 | z8 | z8 | z8 | %301
 z8 | z8 | z8 | z8 | z8 | z8 | z8 | z8 | z8 | z8 | z8 | z8 | z8 | z8 | z8 | E,, z z2 E,, z z2 | %317
 E,, z z2 E,, z z2 | E,, z z2 z4 | z8 | z E,/^F,/ G,E, B,G, CB,/A,/ | %321
 B,2 C/E/A,/C/ B,/A,/G,/B,/ A,/C/^F,/A,/ | G,/^F,/E,/F,/ G,/A,/B, C,E,^F,A, | %323
 B,,_E,=E,G, A,, z B,, z | C, z G,, z A,, z B,, z | C, z G,, z A,, z B,,/A,,/B,, | E,, z z2 z4 | %327
 z8 | z8 | z8 | z8 | z8 | A,, z z2 A,, z z2 | A,, z z2 A,, z z2 | A,, z z2 z4 | z8 | %336
 z A,,/B,,/ C,A,, E,C, F,E,/D,/ | E,2 F,/A,/D,/F,/ E,/D,/C,/E,/ D,/F,/B,,/D,/ | %338
 C,/B,,/A,,/B,,/ C,/D,/E, F,,A,,B,,D, | E,,_A,,=A,,C, D, z E, z | F, z C, z D, z E, z | %341
 F, z C, z D, z E,/D,/E, | A,, z z2 z2 z A,, | D,, z z2 z2 z D, | G,, z z2 z2 z G,, | %345
 C,, z z2 z2 z C, | F,, z z2 z4 | z8 | z8 | z8 | z8 | z8 | z8 | z8 | z8 | z8 | z8 | z8 | z8 | %359
 z4 G,, z z2 | z4 C, z z2 | z4 G, z z2 | z4 C z z2 | z4 G, z z2 | z4 C C,/D,/ E,C, | %365
 G,E, A,G,/F,/ G,2 A,/C/F,/A,/ | G,/F,/E,/G,/ F,/A,/D,/F,/ E,/D,/C,/D,/ E,/F,/G, | %367
 A,,C,D,F, G,,B,,C,E, | F,, z G,, z A,, z E,, z | F,, z G,, z A,, z E,, z | %370
 F,, z G,,/F,,/G,, C,, z z2 |] %371

